%
(1003)
(T2 D=0.0312 CR=0.0156 - ZMIN=-0.21 - ball end mill)
(T4 D=0.25 CR=0 - ZMIN=-0.25 - flat end mill)
N10 G90
N15 G28 G91 Z0
N20 G90

(2D Contour2)
N25 M9
N30 T4 M6
N35 T2
N40 S1000 M3
N45 M9
N50 G0 X4.4149 Y0.2999
N55 Z0.85
N60 Z0.45
N65 G1 Z0.2894 F40
N70 Z-0.1875
N75 Y0.3249
N80 Y0.3499
N85 G3 X4.3899 Y0.3749 I-0.025
N90 G1 X4.2649
N95 X4.1399 Z-0.25
N100 X3.8909
N105 G2 X3.8864 Y0.375 J0.125
N110 G1 X3.8504 Y0.3763
N115 G2 X3.8415 Y0.3769 I0.0045 J0.1249
N120 G1 X3.8058 Y0.3808
N125 G2 X3.797 Y0.382 I0.0134 J0.1243
N130 G1 X3.7617 Y0.3884
N135 G2 X3.7529 Y0.3903 I0.0223 J0.123
N140 G1 X3.7182 Y0.3992
N145 G2 X3.71 Y0.4016 I0.031 J0.1211
N150 G1 X3.6795 Y0.4117
N155 G2 X3.672 Y0.4144 I0.0392 J0.1187
N160 G1 X3.6421 Y0.4265
N165 G2 X3.6348 Y0.4297 I0.0467 J0.1159
N170 G1 X3.6058 Y0.4436
N175 G2 X3.5987 Y0.4473 I0.054 J0.1127
N180 G1 X3.5707 Y0.463
N185 G2 X3.5641 Y0.467 I0.0612 J0.109
N190 G1 X3.5391 Y0.4831
N195 G2 X3.533 Y0.4873 I0.0678 J0.105
N200 G1 X3.509 Y0.5049
N205 G2 X3.5031 Y0.5095 I0.0739 J0.1008
N210 G1 X3.4801 Y0.5285
N215 G2 X3.4745 Y0.5334 I0.0798 J0.0963
N220 G1 X3.4527 Y0.5538
N225 G2 X3.4473 Y0.5591 I0.0853 J0.0914
N230 G1 X3.4265 Y0.5811
N235 G2 X3.4215 Y0.5868 I0.0907 J0.086
N240 G1 X3.402 Y0.6099
N245 G2 X3.3973 Y0.6158 I0.0957 J0.0804
N250 G1 X3.3793 Y0.6401
N255 G2 X3.375 Y0.6463 I0.1004 J0.0745
N260 G1 X3.3585 Y0.6716
N265 G2 X3.3544 Y0.6783 I0.1047 J0.0683
N270 G1 X3.3381 Y0.707
N275 G2 X3.3343 Y0.7143 I0.1088 J0.0616
N280 G1 X3.32 Y0.7441
N285 G2 X3.3166 Y0.7516 I0.1126 J0.0543
N290 G1 X3.3043 Y0.7823
N295 G2 X3.3014 Y0.79 I0.1159 J0.0468
N300 G1 X3.2911 Y0.8214
N305 G2 X3.2887 Y0.8297 I0.1188 J0.039
N310 G1 X3.28 Y0.8642
N315 G2 X3.2781 Y0.8729 I0.1212 J0.0308
N320 G1 X3.2718 Y0.9079
N325 G2 X3.2705 Y0.9167 I0.123 J0.0221
N330 G1 X3.2667 Y0.9521
N335 G2 X3.2661 Y0.961 I0.1243 J0.0133
N340 G1 X3.2648 Y0.9966
N345 G2 Y1.001 I0.1249 J0.0044
N350 G1 Y1.25
N355 Y1.375 Z-0.1875
N360 Y1.625
N365 Y1.75 Z-0.25
N370 Y1.999
N375 G2 Y2.0035 I0.125
N380 G1 X3.2661 Y2.0394
N385 G2 X3.2668 Y2.0484 I0.1249 J-0.0045
N390 G1 X3.2706 Y2.0841
N395 G2 X3.2719 Y2.0929 I0.1243 J-0.0134
N400 G1 X3.2783 Y2.1282
N405 G2 X3.2802 Y2.1369 I0.123 J-0.0223
N410 G1 X3.2891 Y2.1717
N415 G2 X3.2915 Y2.1798 I0.1211 J-0.031
N420 G1 X3.3016 Y2.2104
N425 G2 X3.3043 Y2.2179 I0.1187 J-0.0392
N430 G1 X3.3163 Y2.2477
N435 G2 X3.3196 Y2.2551 I0.116 J-0.0467
N440 G1 X3.3335 Y2.2841
N445 G2 X3.3372 Y2.2912 I0.1127 J-0.054
N450 G1 X3.3529 Y2.3191
N455 G2 X3.3568 Y2.3258 I0.109 J-0.0611
N460 G1 X3.373 Y2.3508
N465 G2 X3.3772 Y2.3569 I0.105 J-0.0678
N470 G1 X3.3948 Y2.3809
N475 G2 X3.3994 Y2.3868 I0.1008 J-0.0739
N480 G1 X3.4184 Y2.4098
N485 G2 X3.4233 Y2.4154 I0.0963 J-0.0797
N490 G1 X3.4437 Y2.4372
N495 G2 X3.449 Y2.4425 I0.0913 J-0.0853
N500 G1 X3.471 Y2.4634
N505 G2 X3.4766 Y2.4684 I0.0861 J-0.0907
N510 G1 X3.4998 Y2.4879
N515 G2 X3.5057 Y2.4926 I0.0804 J-0.0957
N520 G1 X3.53 Y2.5106
N525 G2 X3.5362 Y2.5149 I0.0745 J-0.1004
N530 G1 X3.5615 Y2.5314
N535 G2 X3.5682 Y2.5355 I0.0683 J-0.1047
N540 G1 X3.5969 Y2.5517
N545 G2 X3.6042 Y2.5556 I0.0616 J-0.1088
N550 G1 X3.6339 Y2.5699
N555 G2 X3.6415 Y2.5732 I0.0543 J-0.1126
N560 G1 X3.6722 Y2.5856
N565 G2 X3.6799 Y2.5884 I0.0467 J-0.1159
N570 G1 X3.7113 Y2.5988
N575 G2 X3.7195 Y2.6011 I0.039 J-0.1188
N580 G1 X3.754 Y2.6099
N585 G2 X3.7627 Y2.6118 I0.0308 J-0.1211
N590 G1 X3.7978 Y2.6181
N595 G2 X3.8066 Y2.6194 I0.0221 J-0.123
N600 G1 X3.842 Y2.6231
N605 G2 X3.8508 Y2.6238 I0.0133 J-0.1243
N610 G1 X3.8864 Y2.625
N615 G2 X3.8909 Y2.6251 I0.0044 J-0.1249
N620 G1 X4.1399
N625 X4.2649 Z-0.1875
N630 X4.5149
N635 X4.6399 Z-0.25
N640 X4.8889
N645 G2 X4.8934 Y2.625 J-0.125
N650 G1 X4.9293 Y2.6237
N655 G2 X4.9383 Y2.6231 I-0.0045 J-0.1249
N660 G1 X4.974 Y2.6192
N665 G2 X4.9828 Y2.618 I-0.0134 J-0.1243
N670 G1 X5.0181 Y2.6116
N675 G2 X5.0268 Y2.6097 I-0.0223 J-0.123
N680 G1 X5.0616 Y2.6008
N685 G2 X5.0697 Y2.5984 I-0.031 J-0.1211
N690 G1 X5.1002 Y2.5883
N695 G2 X5.1078 Y2.5855 I-0.0392 J-0.1187
N700 G1 X5.1376 Y2.5735
N705 G2 X5.1449 Y2.5703 I-0.0467 J-0.1159
N710 G1 X5.1739 Y2.5564
N715 G2 X5.181 Y2.5527 I-0.054 J-0.1127
N720 G1 X5.209 Y2.537
N725 G2 X5.2156 Y2.533 I-0.0611 J-0.109
N730 G1 X5.2407 Y2.5169
N735 G2 X5.2468 Y2.5127 I-0.0677 J-0.1051
N740 G1 X5.2708 Y2.4951
N745 G2 X5.2766 Y2.4905 I-0.0739 J-0.1008
N750 G1 X5.2996 Y2.4715
N755 G2 X5.3052 Y2.4666 I-0.0797 J-0.0963
N760 G1 X5.3271 Y2.4462
N765 G2 X5.3324 Y2.4409 I-0.0853 J-0.0914
N770 G1 X5.3533 Y2.4189
N775 G2 X5.3584 Y2.4132 I-0.0907 J-0.0861
N780 G1 X5.3778 Y2.3901
N785 G2 X5.3825 Y2.3841 I-0.0957 J-0.0804
N790 G1 X5.4005 Y2.3599
N795 G2 X5.4047 Y2.3538 I-0.1004 J-0.0745
N800 G1 X5.4212 Y2.3285
N805 G2 X5.4254 Y2.3216 I-0.1046 J-0.0684
N810 G1 X5.4417 Y2.2929
N815 G2 X5.4454 Y2.2858 I-0.1088 J-0.0615
N820 G1 X5.4598 Y2.256
N825 G2 X5.4631 Y2.2484 I-0.1126 J-0.0544
N830 G1 X5.4755 Y2.2177
N835 G2 X5.4783 Y2.21 I-0.1159 J-0.0467
N840 G1 X5.4886 Y2.1786
N845 G2 X5.491 Y2.1704 I-0.1188 J-0.039
N850 G1 X5.4998 Y2.1359
N855 G2 X5.5017 Y2.1272 I-0.1211 J-0.0308
N860 G1 X5.508 Y2.0921
N865 G2 X5.5093 Y2.0833 I-0.123 J-0.0221
N870 G1 X5.513 Y2.0479
N875 G2 X5.5137 Y2.039 I-0.1243 J-0.0133
N880 G1 X5.5149 Y2.0034
N885 G2 X5.515 Y1.999 I-0.1249 J-0.0044
N890 G1 Y1.75
N895 Y1.625 Z-0.1875
N900 Y1.375
N905 Y1.25 Z-0.25
N910 Y1.001
N915 G2 X5.5149 Y0.9965 I-0.125
N920 G1 X5.5136 Y0.9605
N925 G2 X5.513 Y0.9516 I-0.1249 J0.0045
N930 G1 X5.5091 Y0.9159
N935 G2 X5.5078 Y0.9071 I-0.1243 J0.0134
N940 G1 X5.5015 Y0.8718
N945 G2 X5.4996 Y0.8631 I-0.123 J0.0222
N950 G1 X5.4907 Y0.8283
N955 G2 X5.4883 Y0.8201 I-0.1211 J0.031
N960 G1 X5.4782 Y0.7896
N965 G2 X5.4755 Y0.7822 I-0.1187 J0.0392
N970 G1 X5.4635 Y0.7523
N975 G2 X5.4602 Y0.7449 I-0.116 J0.0466
N980 G1 X5.4463 Y0.7159
N985 G2 X5.4426 Y0.7088 I-0.1127 J0.0541
N990 G1 X5.4269 Y0.6808
N995 G2 X5.4229 Y0.6743 I-0.109 J0.0612
N1000 G1 X5.4068 Y0.6492
N1005 G2 X5.4026 Y0.6431 I-0.1051 J0.0677
N1010 G1 X5.385 Y0.6191
N1015 G2 X5.3803 Y0.6131 I-0.1009 J0.0739
N1020 G1 X5.3613 Y0.5902
N1025 G2 X5.3564 Y0.5847 I-0.0962 J0.0798
N1030 G1 X5.336 Y0.5628
N1035 G2 X5.3308 Y0.5575 I-0.0914 J0.0853
N1040 G1 X5.3088 Y0.5366
N1045 G2 X5.3032 Y0.5316 I-0.0861 J0.0906
N1050 G1 X5.28 Y0.5121
N1055 G2 X5.274 Y0.5074 I-0.0804 J0.0957
N1060 G1 X5.2497 Y0.4894
N1065 G2 X5.2436 Y0.4851 I-0.0744 J0.1004
N1070 G1 X5.2184 Y0.4686
N1075 G2 X5.2116 Y0.4645 I-0.0684 J0.1046
N1080 G1 X5.1829 Y0.4483
N1085 G2 X5.1756 Y0.4444 I-0.0616 J0.1088
N1090 G1 X5.1458 Y0.4301
N1095 G2 X5.1383 Y0.4268 I-0.0543 J0.1126
N1100 G1 X5.1076 Y0.4144
N1105 G2 X5.0999 Y0.4116 I-0.0468 J0.1159
N1110 G1 X5.0684 Y0.4012
N1115 G2 X5.0602 Y0.3989 I-0.039 J0.1188
N1120 G1 X5.0257 Y0.3901
N1125 G2 X5.017 Y0.3882 I-0.0308 J0.1212
N1130 G1 X4.982 Y0.3819
N1135 G2 X4.9732 Y0.3806 I-0.0221 J0.123
N1140 G1 X4.9378 Y0.3769
N1145 G2 X4.9289 Y0.3762 I-0.0133 J0.1243
N1150 G1 X4.8933 Y0.375
N1155 G2 X4.8889 Y0.3749 I-0.0044 J0.1249
N1160 G1 X4.6399
N1165 X4.5149 Z-0.1875
N1170 X4.3899
N1175 G3 X4.3649 Y0.3499 J-0.025
N1180 G1 Y0.2999
N1185 G0 Z0.85

(Contour2)
N1190 M9
N1195 X3.4895 Y0.9146
N1200 Z0.85
N1205 Z0.1603
N1210 G1 Z0.1448 F40
N1215 G3 X3.4831 Y1.152 Z0.1318 I-0.0032 J0.1187
N1220 X3.4895 Y0.9146 Z0.1188 I0.0032 J-0.1187
N1225 X3.4831 Y1.152 Z0.1058 I-0.0032 J0.1187
N1230 X3.4895 Y0.9146 Z0.0927 I0.0032 J-0.1187
N1235 X3.4831 Y1.152 Z0.0797 I-0.0032 J0.1187
N1240 X3.4895 Y0.9146 Z0.0667 I0.0032 J-0.1187
N1245 X3.4831 Y1.152 Z0.0536 I-0.0032 J0.1187
N1250 X3.3684 Y1.019 Z0.0467 I0.0032 J-0.1187
N1255 X3.5116 Y0.9173 Z0.0398 I0.1179 J0.0143
N1260 G1 X3.6399 Y0.9453
N1265 X3.6389 Y0.9495
N1270 X3.6375 Y0.9574
N1275 X3.6362 Y0.9654
N1280 X3.635 Y0.9734
N1285 X3.6336 Y0.9814
N1290 X3.6328 Y0.9893
N1295 X3.6325 Y0.9973
N1300 Y1.0053
N1305 X3.6337 Y1.1649
N1310 Y1.1729
N1315 X3.6325 Y1.492
N1320 Y1.5
N1325 Y1.9947
N1330 Y2.0027
N1335 X3.6328 Y2.0107
N1340 X3.6336 Y2.0186
N1345 X3.635 Y2.0266
N1350 X3.6362 Y2.0346
N1355 X3.6375 Y2.0426
N1360 X3.6389 Y2.0505
N1365 X3.6399 Y2.0547
N1370 X3.6407 Y2.0585
N1375 X3.6428 Y2.0665
N1380 X3.6451 Y2.0745
N1385 X3.6477 Y2.0825
N1390 X3.6478 Y2.083
N1395 X3.6506 Y2.0904
N1400 X3.6537 Y2.0984
N1405 X3.6558 Y2.1032
N1410 X3.6572 Y2.1064
N1415 X3.6611 Y2.1144
N1420 X3.6638 Y2.1197
N1425 X3.6653 Y2.1224
N1430 X3.6698 Y2.1303
N1435 X3.6718 Y2.1336
N1440 X3.6748 Y2.1383
N1445 X3.6798 Y2.1458
N1450 X3.6801 Y2.1463
N1455 X3.6859 Y2.1543
N1460 X3.6877 Y2.1566
N1465 X3.6922 Y2.1623
N1470 X3.6957 Y2.1664
N1475 X3.699 Y2.1702
N1480 X3.7037 Y2.1753
N1485 X3.7065 Y2.1782
N1490 X3.7117 Y2.1834
N1495 X3.7146 Y2.1862
N1500 X3.7197 Y2.1908
N1505 X3.7235 Y2.1942
N1510 X3.7276 Y2.1977
N1515 X3.7333 Y2.2022
N1520 X3.7356 Y2.204
N1525 X3.7436 Y2.2098
N1530 X3.7441 Y2.2101
N1535 X3.7516 Y2.2151
N1540 X3.7563 Y2.2181
N1545 X3.7595 Y2.2201
N1550 X3.7675 Y2.2246
N1555 X3.7702 Y2.2261
N1560 X3.7755 Y2.2288
N1565 X3.7835 Y2.2326
N1570 X3.7867 Y2.2341
N1575 X3.7915 Y2.2362
N1580 X3.7994 Y2.2393
N1585 X3.8069 Y2.242
N1590 X3.8074 Y2.2422
N1595 X3.8154 Y2.2448
N1600 X3.8234 Y2.2471
N1605 X3.8314 Y2.2492
N1610 X3.8352 Y2.25
N1615 X3.8393 Y2.2509
N1620 X3.8473 Y2.2524
N1625 X3.8553 Y2.2537
N1630 X3.8633 Y2.2549
N1635 X3.8713 Y2.2562
N1640 X3.8792 Y2.257
N1645 X3.8872 Y2.2574
N1650 X3.8952
N1655 X4.0548 Y2.2562
N1660 X4.0627
N1665 X4.3819 Y2.2574
N1670 X4.3899
N1675 X4.8846
N1680 X4.8926
N1685 X4.9005 Y2.257
N1690 X4.9085 Y2.2562
N1695 X4.9165 Y2.2549
N1700 X4.9245 Y2.2537
N1705 X4.9325 Y2.2524
N1710 X4.9404 Y2.2509
N1715 X4.9446 Y2.25
N1720 X4.9484 Y2.2492
N1725 X4.9564 Y2.2471
N1730 X4.9644 Y2.2448
N1735 X4.9723 Y2.2422
N1740 X4.9729 Y2.242
N1745 X4.9803 Y2.2393
N1750 X4.9883 Y2.2362
N1755 X4.9931 Y2.2341
N1760 X4.9963 Y2.2326
N1765 X5.0043 Y2.2288
N1770 X5.0096 Y2.2261
N1775 X5.0122 Y2.2246
N1780 X5.0202 Y2.2201
N1785 X5.0235 Y2.2181
N1790 X5.0282 Y2.2151
N1795 X5.0357 Y2.2101
N1800 X5.0362 Y2.2098
N1805 X5.0442 Y2.204
N1810 X5.0465 Y2.2022
N1815 X5.0521 Y2.1977
N1820 X5.0563 Y2.1942
N1825 X5.0601 Y2.1908
N1830 X5.0652 Y2.1862
N1835 X5.0681 Y2.1834
N1840 X5.0733 Y2.1782
N1845 X5.0761 Y2.1753
N1850 X5.0807 Y2.1702
N1855 X5.0841 Y2.1664
N1860 X5.0876 Y2.1623
N1865 X5.092 Y2.1566
N1870 X5.0939 Y2.1543
N1875 X5.0996 Y2.1463
N1880 X5.1 Y2.1458
N1885 X5.105 Y2.1383
N1890 X5.108 Y2.1336
N1895 X5.11 Y2.1303
N1900 X5.1145 Y2.1224
N1905 X5.116 Y2.1197
N1910 X5.1187 Y2.1144
N1915 X5.1225 Y2.1064
N1920 X5.1239 Y2.1032
N1925 X5.126 Y2.0984
N1930 X5.1292 Y2.0904
N1935 X5.1319 Y2.083
N1940 X5.1321 Y2.0825
N1945 X5.1347 Y2.0745
N1950 X5.137 Y2.0665
N1955 X5.139 Y2.0585
N1960 X5.1399 Y2.0547
N1965 X5.1408 Y2.0505
N1970 X5.1423 Y2.0426
N1975 X5.1436 Y2.0346
N1980 X5.1448 Y2.0266
N1985 X5.1461 Y2.0186
N1990 X5.1469 Y2.0107
N1995 X5.1472 Y2.0027
N2000 X5.1473 Y1.9947
N2005 X5.1461 Y1.8351
N2010 X5.146 Y1.8271
N2015 X5.1473 Y1.508
N2020 Y1.5
N2025 Y1.0053
N2030 X5.1472 Y0.9973
N2035 X5.1469 Y0.9893
N2040 X5.1461 Y0.9814
N2045 X5.1448 Y0.9734
N2050 X5.1436 Y0.9654
N2055 X5.1423 Y0.9574
N2060 X5.1408 Y0.9495
N2065 X5.1399 Y0.9453
N2070 X5.139 Y0.9415
N2075 X5.137 Y0.9335
N2080 X5.1347 Y0.9255
N2085 X5.1321 Y0.9175
N2090 X5.1319 Y0.917
N2095 X5.1292 Y0.9096
N2100 X5.126 Y0.9016
N2105 X5.1239 Y0.8968
N2110 X5.1225 Y0.8936
N2115 X5.1187 Y0.8856
N2120 X5.116 Y0.8803
N2125 X5.1145 Y0.8776
N2130 X5.11 Y0.8697
N2135 X5.108 Y0.8664
N2140 X5.105 Y0.8617
N2145 X5.1 Y0.8542
N2150 X5.0996 Y0.8537
N2155 X5.0939 Y0.8457
N2160 X5.092 Y0.8434
N2165 X5.0876 Y0.8377
N2170 X5.0841 Y0.8336
N2175 X5.0807 Y0.8298
N2180 X5.0761 Y0.8247
N2185 X5.0733 Y0.8218
N2190 X5.0681 Y0.8166
N2195 X5.0652 Y0.8138
N2200 X5.0601 Y0.8092
N2205 X5.0563 Y0.8058
N2210 X5.0521 Y0.8023
N2215 X5.0465 Y0.7978
N2220 X5.0442 Y0.796
N2225 X5.0362 Y0.7902
N2230 X5.0357 Y0.7899
N2235 X5.0282 Y0.7849
N2240 X5.0235 Y0.7819
N2245 X5.0202 Y0.7799
N2250 X5.0122 Y0.7754
N2255 X5.0096 Y0.7739
N2260 X5.0043 Y0.7712
N2265 X4.9963 Y0.7674
N2270 X4.9931 Y0.7659
N2275 X4.9883 Y0.7638
N2280 X4.9803 Y0.7607
N2285 X4.9729 Y0.758
N2290 X4.9723 Y0.7578
N2295 X4.9644 Y0.7552
N2300 X4.9564 Y0.7529
N2305 X4.9484 Y0.7508
N2310 X4.9446 Y0.75
N2315 X4.9404 Y0.7491
N2320 X4.9325 Y0.7476
N2325 X4.9245 Y0.7463
N2330 X4.9165 Y0.7451
N2335 X4.9085 Y0.7438
N2340 X4.9005 Y0.743
N2345 X4.8926 Y0.7426
N2350 X4.8846
N2355 X4.725 Y0.7438
N2360 X4.717
N2365 X4.3979 Y0.7426
N2370 X4.3899
N2375 X3.8952
N2380 X3.8872
N2385 X3.8792 Y0.743
N2390 X3.8713 Y0.7438
N2395 X3.8633 Y0.7451
N2400 X3.8553 Y0.7463
N2405 X3.8473 Y0.7476
N2410 X3.8393 Y0.7491
N2415 X3.8352 Y0.75
N2420 X3.8314 Y0.7508
N2425 X3.8234 Y0.7529
N2430 X3.8154 Y0.7552
N2435 X3.8074 Y0.7578
N2440 X3.8069 Y0.758
N2445 X3.7994 Y0.7607
N2450 X3.7915 Y0.7638
N2455 X3.7867 Y0.7659
N2460 X3.7835 Y0.7674
N2465 X3.7755 Y0.7712
N2470 X3.7702 Y0.7739
N2475 X3.7675 Y0.7754
N2480 X3.7595 Y0.7799
N2485 X3.7563 Y0.7819
N2490 X3.7516 Y0.7849
N2495 X3.7441 Y0.7899
N2500 X3.7436 Y0.7902
N2505 X3.7356 Y0.796
N2510 X3.7333 Y0.7978
N2515 X3.7276 Y0.8023
N2520 X3.7235 Y0.8058
N2525 X3.7197 Y0.8092
N2530 X3.7146 Y0.8138
N2535 X3.7117 Y0.8166
N2540 X3.7065 Y0.8218
N2545 X3.7037 Y0.8247
N2550 X3.699 Y0.8298
N2555 X3.6957 Y0.8336
N2560 X3.6922 Y0.8377
N2565 X3.6877 Y0.8434
N2570 X3.6859 Y0.8457
N2575 X3.6801 Y0.8537
N2580 X3.6798 Y0.8542
N2585 X3.6748 Y0.8617
N2590 X3.6718 Y0.8664
N2595 X3.6698 Y0.8697
N2600 X3.6653 Y0.8776
N2605 X3.6638 Y0.8803
N2610 X3.6611 Y0.8856
N2615 X3.6572 Y0.8936
N2620 X3.6558 Y0.8968
N2625 X3.6537 Y0.9016
N2630 X3.6506 Y0.9096
N2635 X3.6478 Y0.917
N2640 X3.6477 Y0.9175
N2645 X3.6451 Y0.9255
N2650 X3.6428 Y0.9335
N2655 X3.6407 Y0.9415
N2660 X3.6399 Y0.9453
N2665 X3.6368 Y0.9478
N2670 X3.6363 Y0.9492
N2675 X3.6357 Y0.9506
N2680 X3.6342 Y0.9534
N2685 X3.6334 Y0.9547
N2690 X3.6325 Y0.9559
N2695 X3.6285 Y0.9611 Z0.0397
N2700 X3.6262 Y0.9634
N2705 X3.625 Y0.9645
N2710 X3.6247 Y0.9648
N2715 X3.6244 Y0.965
N2720 X3.6243 Y0.9651
N2725 X3.6242 Y0.9655
N2730 X3.624 Y0.9659
N2735 X3.6228 Y0.9686 Z0.0396
N2740 X3.6216 Y0.9714
N2745 X3.619 Y0.9769 Z0.0395
N2750 X3.6155 Y0.9833 Z0.0393
N2755 X3.6135 Y0.9865 Z0.0392
N2760 X3.6116 Y0.9896 Z0.0391
N2765 X3.6108 Y0.9909
N2770 X3.6101 Y0.9922
N2775 X3.6095 Y0.9935 Z0.039
N2780 X3.6089 Y0.9949
N2785 X3.6068 Y1.0004 Z0.0389
N2790 X3.6044 Y1.007 Z0.0387
N2795 X3.6022 Y1.0138 Z0.0385
N2800 X3.5998 Y1.0203 Z0.0383
N2805 X3.5976 Y1.0268 Z0.0382
N2810 X3.5954 Y1.0332 Z0.038
N2815 X3.5938 Y1.0398 Z0.0379
N2820 X3.5925 Y1.0463 Z0.0378
N2825 X3.5915 Y1.0529 Z0.0377
N2830 X3.5902 Y1.0659 Z0.0375
N2835 X3.59 Y1.0732
N2840 X3.5898 Y1.2447
N2845 Y1.2527
N2850 X3.5903 Y1.5
N2855 X3.5898 Y1.7473
N2860 Y1.7553
N2865 X3.59 Y1.9867
N2870 Y1.9947
N2875 X3.5898 Y2.0027
N2880 X3.5902 Y2.0107
N2885 X3.5909 Y2.0186
N2890 X3.5915 Y2.0266
N2895 X3.592 Y2.0311
N2900 X3.5924 Y2.0346
N2905 X3.5934 Y2.0426
N2910 X3.5947 Y2.0505
N2915 X3.5962 Y2.0585
N2920 X3.5979 Y2.0665
N2925 X3.5999 Y2.0745
N2930 X3.6 Y2.0747
N2935 X3.6021 Y2.0825
N2940 X3.6045 Y2.0904
N2945 X3.6072 Y2.0984
N2950 X3.6079 Y2.1006
N2955 X3.6101 Y2.1064
N2960 X3.6133 Y2.1144
N2965 X3.6159 Y2.1205
N2970 X3.6167 Y2.1224
N2975 X3.6205 Y2.1303
N2980 X3.6239 Y2.1372
N2985 X3.6245 Y2.1383
N2990 X3.6288 Y2.1463
N2995 X3.6319 Y2.1516
N3000 X3.6335 Y2.1543
N3005 X3.6385 Y2.1623
N3010 X3.6399 Y2.1644
N3015 X3.6438 Y2.1702
N3020 X3.6478 Y2.1759
N3025 X3.6495 Y2.1782
N3030 X3.6557 Y2.1862
N3035 X3.6558 Y2.1864
N3040 X3.6622 Y2.1942
N3045 X3.6638 Y2.196
N3050 X3.6693 Y2.2022
N3055 X3.6718 Y2.2048
N3060 X3.6769 Y2.2101
N3065 X3.6798 Y2.213
N3070 X3.6851 Y2.2181
N3075 X3.6877 Y2.2206
N3080 X3.6939 Y2.2261
N3085 X3.6957 Y2.2277
N3090 X3.7035 Y2.2341
N3095 X3.7037 Y2.2342
N3100 X3.7117 Y2.2404
N3105 X3.714 Y2.242
N3110 X3.7197 Y2.2461
N3115 X3.7255 Y2.25
N3120 X3.7276 Y2.2514
N3125 X3.7356 Y2.2564
N3130 X3.7383 Y2.258
N3135 X3.7436 Y2.2611
N3140 X3.7516 Y2.2654
N3145 X3.7527 Y2.266
N3150 X3.7595 Y2.2694
N3155 X3.7675 Y2.2731
N3160 X3.7693 Y2.274
N3165 X3.7755 Y2.2766
N3170 X3.7835 Y2.2798
N3175 X3.7893 Y2.2819
N3180 X3.7915 Y2.2827
N3185 X3.7994 Y2.2854
N3190 X3.8074 Y2.2878
N3195 X3.8151 Y2.2899
N3200 X3.8154 Y2.29
N3205 X3.8234 Y2.2919
N3210 X3.8314 Y2.2937
N3215 X3.8393 Y2.2952
N3220 X3.8473 Y2.2965
N3225 X3.8553 Y2.2975
N3230 X3.8588 Y2.2979
N3235 X3.8633 Y2.2983
N3240 X3.8713 Y2.299
N3245 X3.8792 Y2.2997
N3250 X3.8872 Y2.3
N3255 X3.8952 Y2.2999
N3260 X3.9032 Y2.2998
N3265 X4.1346 Y2.3001
N3270 X4.1425
N3275 X4.3899 Y2.2996
N3280 X4.6372 Y2.3001
N3285 X4.6452
N3290 X4.8766 Y2.2998
N3295 X4.8846 Y2.2999
N3300 X4.8926 Y2.3
N3305 X4.9005 Y2.2997
N3310 X4.9085 Y2.299
N3315 X4.9165 Y2.2983
N3320 X4.921 Y2.2979
N3325 X4.9245 Y2.2975
N3330 X4.9325 Y2.2965
N3335 X4.9404 Y2.2952
N3340 X4.9484 Y2.2937
N3345 X4.9564 Y2.2919
N3350 X4.9644 Y2.29
N3355 X4.9646 Y2.2899
N3360 X4.9723 Y2.2878
N3365 X4.9803 Y2.2854
N3370 X4.9883 Y2.2827
N3375 X4.9905 Y2.2819
N3380 X4.9963 Y2.2798
N3385 X5.0043 Y2.2766
N3390 X5.0104 Y2.274
N3395 X5.0122 Y2.2731
N3400 X5.0202 Y2.2694
N3405 X5.027 Y2.266
N3410 X5.0282 Y2.2654
N3415 X5.0362 Y2.2611
N3420 X5.0415 Y2.258
N3425 X5.0442 Y2.2564
N3430 X5.0521 Y2.2514
N3435 X5.0543 Y2.25
N3440 X5.0601 Y2.2461
N3445 X5.0658 Y2.242
N3450 X5.0681 Y2.2404
N3455 X5.0761 Y2.2342
N3460 X5.0763 Y2.2341
N3465 X5.0841 Y2.2277
N3470 X5.0859 Y2.2261
N3475 X5.092 Y2.2206
N3480 X5.0947 Y2.2181
N3485 X5.1 Y2.213
N3490 X5.1029 Y2.2101
N3495 X5.108 Y2.2048
N3500 X5.1105 Y2.2022
N3505 X5.116 Y2.196
N3510 X5.1175 Y2.1942
N3515 X5.1239 Y2.1864
N3520 X5.1241 Y2.1862
N3525 X5.1303 Y2.1782
N3530 X5.1319 Y2.1759
N3535 X5.136 Y2.1702
N3540 X5.1399 Y2.1644
N3545 X5.1413 Y2.1623
N3550 X5.1463 Y2.1543
N3555 X5.1479 Y2.1516
N3560 X5.151 Y2.1463
N3565 X5.1553 Y2.1383
N3570 X5.1559 Y2.1372
N3575 X5.1593 Y2.1303
N3580 X5.163 Y2.1224
N3585 X5.1638 Y2.1205
N3590 X5.1665 Y2.1144
N3595 X5.1697 Y2.1064
N3600 X5.1718 Y2.1006
N3605 X5.1726 Y2.0984
N3610 X5.1753 Y2.0904
N3615 X5.1777 Y2.0825
N3620 X5.1798 Y2.0747
N3625 X5.1799 Y2.0745
N3630 X5.1818 Y2.0665
N3635 X5.1836 Y2.0585
N3640 X5.1851 Y2.0505
N3645 X5.1863 Y2.0426
N3650 X5.1874 Y2.0346
N3655 X5.1878 Y2.0311
N3660 X5.1882 Y2.0266
N3665 X5.1889 Y2.0186
N3670 X5.1896 Y2.0107
N3675 X5.1899 Y2.0027
N3680 X5.1898 Y1.9947
N3685 X5.1897 Y1.9867
N3690 X5.19 Y1.7553
N3695 Y1.7473
N3700 X5.1895 Y1.5
N3705 X5.19 Y1.2527
N3710 Y1.2447
N3715 X5.1897 Y1.0133
N3720 X5.1898 Y1.0053
N3725 X5.1899 Y0.9973
N3730 X5.1896 Y0.9893
N3735 X5.1889 Y0.9814
N3740 X5.1882 Y0.9734
N3745 X5.1878 Y0.9689
N3750 X5.1874 Y0.9654
N3755 X5.1863 Y0.9574
N3760 X5.1851 Y0.9495
N3765 X5.1836 Y0.9415
N3770 X5.1818 Y0.9335
N3775 X5.1799 Y0.9255
N3780 X5.1798 Y0.9253
N3785 X5.1777 Y0.9175
N3790 X5.1753 Y0.9096
N3795 X5.1726 Y0.9016
N3800 X5.1718 Y0.8994
N3805 X5.1697 Y0.8936
N3810 X5.1665 Y0.8856
N3815 X5.1638 Y0.8795
N3820 X5.163 Y0.8776
N3825 X5.1593 Y0.8697
N3830 X5.1559 Y0.8628
N3835 X5.1553 Y0.8617
N3840 X5.151 Y0.8537
N3845 X5.1479 Y0.8484
N3850 X5.1463 Y0.8457
N3855 X5.1413 Y0.8377
N3860 X5.1399 Y0.8356
N3865 X5.136 Y0.8298
N3870 X5.1319 Y0.8241
N3875 X5.1303 Y0.8218
N3880 X5.1241 Y0.8138
N3885 X5.1239 Y0.8136
N3890 X5.1175 Y0.8058
N3895 X5.116 Y0.804
N3900 X5.1105 Y0.7978
N3905 X5.108 Y0.7952
N3910 X5.1029 Y0.7899
N3915 X5.1 Y0.787
N3920 X5.0947 Y0.7819
N3925 X5.092 Y0.7794
N3930 X5.0859 Y0.7739
N3935 X5.0841 Y0.7723
N3940 X5.0763 Y0.7659
N3945 X5.0761 Y0.7658
N3950 X5.0681 Y0.7596
N3955 X5.0658 Y0.758
N3960 X5.0601 Y0.7539
N3965 X5.0543 Y0.75
N3970 X5.0521 Y0.7486
N3975 X5.0442 Y0.7436
N3980 X5.0415 Y0.742
N3985 X5.0362 Y0.7389
N3990 X5.0282 Y0.7346
N3995 X5.027 Y0.734
N4000 X5.0202 Y0.7306
N4005 X5.0122 Y0.7269
N4010 X5.0104 Y0.726
N4015 X5.0043 Y0.7234
N4020 X4.9963 Y0.7202
N4025 X4.9905 Y0.7181
N4030 X4.9883 Y0.7173
N4035 X4.9803 Y0.7146
N4040 X4.9723 Y0.7122
N4045 X4.9646 Y0.7101
N4050 X4.9644 Y0.71
N4055 X4.9564 Y0.7081
N4060 X4.9484 Y0.7063
N4065 X4.9404 Y0.7048
N4070 X4.9325 Y0.7035
N4075 X4.9245 Y0.7025
N4080 X4.921 Y0.7021
N4085 X4.9165 Y0.7017
N4090 X4.9085 Y0.701
N4095 X4.9005 Y0.7003
N4100 X4.8926 Y0.7
N4105 X4.8846 Y0.7001
N4110 X4.8766 Y0.7002
N4115 X4.6452 Y0.6999
N4120 X4.6372
N4125 X4.3899 Y0.7004
N4130 X4.1425 Y0.6999
N4135 X4.1346
N4140 X3.9032 Y0.7002
N4145 X3.8952 Y0.7001
N4150 X3.8872 Y0.7
N4155 X3.8792 Y0.7003
N4160 X3.8713 Y0.701
N4165 X3.8633 Y0.7017
N4170 X3.8588 Y0.7021
N4175 X3.8553 Y0.7025
N4180 X3.8473 Y0.7035
N4185 X3.8393 Y0.7048
N4190 X3.8314 Y0.7063
N4195 X3.8234 Y0.7081
N4200 X3.8154 Y0.71
N4205 X3.8151 Y0.7101
N4210 X3.8074 Y0.7122
N4215 X3.7994 Y0.7146
N4220 X3.7915 Y0.7173
N4225 X3.7893 Y0.7181
N4230 X3.7835 Y0.7202
N4235 X3.7755 Y0.7234
N4240 X3.7693 Y0.726
N4245 X3.7675 Y0.7269
N4250 X3.7595 Y0.7306
N4255 X3.7527 Y0.734
N4260 X3.7516 Y0.7346
N4265 X3.7436 Y0.7389
N4270 X3.7383 Y0.742
N4275 X3.7356 Y0.7436
N4280 X3.7276 Y0.7486
N4285 X3.7255 Y0.75
N4290 X3.7197 Y0.7539
N4295 X3.714 Y0.758
N4300 X3.7117 Y0.7596
N4305 X3.7037 Y0.7658
N4310 X3.7035 Y0.7659
N4315 X3.6957 Y0.7723
N4320 X3.6939 Y0.7739
N4325 X3.6877 Y0.7794
N4330 X3.6851 Y0.7819
N4335 X3.6798 Y0.787
N4340 X3.6769 Y0.7899
N4345 X3.6718 Y0.7952
N4350 X3.6693 Y0.7978
N4355 X3.6638 Y0.804
N4360 X3.6622 Y0.8058
N4365 X3.6558 Y0.8136
N4370 X3.6557 Y0.8138
N4375 X3.6495 Y0.8218
N4380 X3.6478 Y0.8241
N4385 X3.6438 Y0.8298
N4390 X3.6399 Y0.8356
N4395 X3.6385 Y0.8377
N4400 X3.6335 Y0.8457
N4405 X3.6319 Y0.8484
N4410 X3.6288 Y0.8537
N4415 X3.6245 Y0.8617
N4420 X3.6239 Y0.8628
N4425 X3.6205 Y0.8697
N4430 X3.6167 Y0.8776
N4435 X3.6159 Y0.8795
N4440 X3.6133 Y0.8856
N4445 X3.6101 Y0.8936
N4450 X3.6079 Y0.8994
N4455 X3.6072 Y0.9016
N4460 X3.6045 Y0.9096
N4465 X3.6021 Y0.9175
N4470 X3.6 Y0.9253
N4475 X3.5999 Y0.9255
N4480 X3.5979 Y0.9335
N4485 X3.5962 Y0.9415
N4490 X3.5947 Y0.9495
N4495 X3.5934 Y0.9574
N4500 X3.5924 Y0.9654
N4505 X3.592 Y0.9689
N4510 X3.5915 Y0.9734
N4515 X3.5909 Y0.9814
N4520 X3.5902 Y0.9893
N4525 X3.5898 Y0.9973
N4530 X3.59 Y1.0053
N4535 Y1.0133
N4540 Y1.0732
N4545 X3.5896 Y1.0872
N4550 X3.5885 Y1.1012 Z0.0374
N4555 X3.5867 Y1.1152 Z0.0372
N4560 X3.5856 Y1.1221 Z0.0371
N4565 X3.5843 Y1.1291 Z0.0369
N4570 X3.5829 Y1.1361 Z0.0368
N4575 X3.5813 Y1.143 Z0.0366
N4580 X3.5798 Y1.15 Z0.0365
N4585 X3.5783 Y1.157 Z0.0363
N4590 X3.5767 Y1.164 Z0.0361
N4595 X3.5759 Y1.1675 Z0.036
N4600 X3.5751 Y1.171 Z0.0359
N4605 X3.5742 Y1.1745 Z0.0358
N4610 X3.5733 Y1.178 Z0.0357
N4615 X3.5725 Y1.1814 Z0.0355
N4620 X3.5716 Y1.1849 Z0.0354
N4625 X3.5707 Y1.1884 Z0.0353
N4630 X3.5697 Y1.1919 Z0.0352
N4635 X3.5688 Y1.1954 Z0.0351
N4640 X3.5669 Y1.2024 Z0.0348
N4645 X3.5659 Y1.2059 Z0.0347
N4650 X3.5649 Y1.2094 Z0.0346
N4655 X3.564 Y1.2129 Z0.0344
N4660 X3.5632 Y1.2164 Z0.0343
N4665 X3.5624 Y1.2199 Z0.0342
N4670 X3.5616 Y1.2234 Z0.0341
N4675 X3.5608 Y1.2269 Z0.0339
N4680 X3.56 Y1.2304 Z0.0338
N4685 X3.5592 Y1.2338 Z0.0337
N4690 X3.5584 Y1.2373 Z0.0336
N4695 X3.5575 Y1.2408 Z0.0334
N4700 X3.5567 Y1.2443 Z0.0333
N4705 X3.5559 Y1.2478 Z0.0332
N4710 X3.5551 Y1.2513 Z0.0331
N4715 X3.5543 Y1.2548 Z0.0329
N4720 X3.5535 Y1.2583 Z0.0328
N4725 X3.5527 Y1.2618 Z0.0327
N4730 X3.5519 Y1.2653 Z0.0326
N4735 X3.5511 Y1.2688 Z0.0324
N4740 X3.5503 Y1.2723 Z0.0323
N4745 X3.5496 Y1.2758 Z0.0322
N4750 X3.5488 Y1.2793 Z0.0321
N4755 X3.548 Y1.2828 Z0.0319
N4760 X3.5472 Y1.2862 Z0.0318
N4765 X3.5465 Y1.2897 Z0.0317
N4770 X3.5458 Y1.2932 Z0.0316
N4775 X3.5451 Y1.2967 Z0.0314
N4780 X3.5424 Y1.3107 Z0.0309
N4785 X3.5418 Y1.3142 Z0.0308
N4790 X3.5411 Y1.3177 Z0.0307
N4795 X3.5404 Y1.3212 Z0.0306
N4800 X3.5398 Y1.3247 Z0.0305
N4805 X3.5391 Y1.3282 Z0.0303
N4810 X3.5385 Y1.3317 Z0.0302
N4815 X3.5378 Y1.3352 Z0.0301
N4820 X3.5372 Y1.3387 Z0.03
N4825 X3.5365 Y1.3421 Z0.0298
N4830 X3.5359 Y1.3456 Z0.0297
N4835 X3.5352 Y1.3491 Z0.0296
N4840 X3.5346 Y1.3526 Z0.0295
N4845 X3.5339 Y1.3561 Z0.0293
N4850 X3.5333 Y1.3596 Z0.0292
N4855 X3.5326 Y1.3631 Z0.0291
N4860 X3.532 Y1.3666 Z0.029
N4865 X3.5313 Y1.3701 Z0.0288
N4870 X3.5307 Y1.3736 Z0.0287
N4875 X3.53 Y1.3771 Z0.0286
N4880 X3.5294 Y1.3806 Z0.0285
N4885 X3.5287 Y1.3841 Z0.0283
N4890 X3.5281 Y1.3875 Z0.0282
N4895 X3.5275 Y1.391 Z0.0281
N4900 X3.527 Y1.3945 Z0.028
N4905 X3.5264 Y1.398 Z0.0278
N4910 X3.5258 Y1.4015 Z0.0277
N4915 X3.5252 Y1.405 Z0.0276
N4920 X3.5247 Y1.4085 Z0.0275
N4925 X3.5241 Y1.412 Z0.0274
N4930 X3.5236 Y1.4155 Z0.0272
N4935 X3.5231 Y1.419 Z0.0271
N4940 X3.5226 Y1.4225 Z0.027
N4945 X3.5221 Y1.426 Z0.0269
N4950 X3.5216 Y1.4295 Z0.0268
N4955 X3.5211 Y1.433 Z0.0267
N4960 X3.5207 Y1.4365 Z0.0266
N4965 X3.5202 Y1.44 Z0.0265
N4970 X3.5198 Y1.4434 Z0.0264
N4975 X3.5189 Y1.4504 Z0.0262
N4980 X3.5181 Y1.4574 Z0.026
N4985 X3.5174 Y1.4644 Z0.0258
N4990 X3.5167 Y1.4714 Z0.0257
N4995 X3.5161 Y1.4784 Z0.0255
N5000 X3.5156 Y1.4854 Z0.0254
N5005 X3.5151 Y1.4924 Z0.0253
N5010 X3.5144 Y1.5063 Z0.0251
N5015 X3.5139 Y1.5203 Z0.025
N5020 X3.5138 Y1.5322
N5025 X3.5135 Y1.867
N5030 Y1.875
N5035 X3.5136 Y1.9947
N5040 Y2.0027
N5045 X3.5139 Y2.0107
N5050 X3.5143 Y2.0186
N5055 X3.5148 Y2.0266
N5060 X3.5155 Y2.0346
N5065 X3.5163 Y2.0426
N5070 X3.5174 Y2.0505
N5075 X3.5186 Y2.0585
N5080 X3.5199 Y2.0665
N5085 X3.5202 Y2.0679
N5090 X3.5215 Y2.0745
N5095 X3.5232 Y2.0825
N5100 X3.5251 Y2.0904
N5105 X3.5272 Y2.0984
N5110 X3.5282 Y2.102
N5115 X3.5294 Y2.1064
N5120 X3.5319 Y2.1144
N5125 X3.5346 Y2.1224
N5130 X3.5361 Y2.1268
N5135 X3.5374 Y2.1303
N5140 X3.5405 Y2.1383
N5145 X3.5438 Y2.1463
N5150 X3.5441 Y2.1471
N5155 X3.5473 Y2.1543
N5160 X3.551 Y2.1623
N5165 X3.5521 Y2.1645
N5170 X3.5549 Y2.1702
N5175 X3.5591 Y2.1782
N5180 X3.5601 Y2.1799
N5185 X3.5636 Y2.1862
N5190 X3.5681 Y2.1938
N5195 X3.5683 Y2.1942
N5200 X3.5732 Y2.2022
N5205 X3.576 Y2.2065
N5210 X3.5785 Y2.2101
N5215 X3.584 Y2.2181
N5220 X3.5899 Y2.2261
N5225 X3.592 Y2.2289
N5230 X3.5961 Y2.2341
N5235 X3.6 Y2.2389
N5240 X3.6026 Y2.242
N5245 X3.6079 Y2.2482
N5250 X3.6095 Y2.25
N5255 X3.6159 Y2.257
N5260 X3.6168 Y2.258
N5265 X3.6239 Y2.2653
N5270 X3.6246 Y2.266
N5275 X3.6319 Y2.273
N5280 X3.6329 Y2.274
N5285 X3.6399 Y2.2804
N5290 X3.6417 Y2.2819
N5295 X3.6478 Y2.2873
N5300 X3.651 Y2.2899
N5305 X3.6558 Y2.2938
N5310 X3.661 Y2.2979
N5315 X3.6638 Y2.3
N5320 X3.6718 Y2.3059
N5325 X3.6798 Y2.3114
N5330 X3.6834 Y2.3139
N5335 X3.6877 Y2.3167
N5340 X3.6957 Y2.3216
N5345 X3.696 Y2.3218
N5350 X3.7037 Y2.3263
N5355 X3.71 Y2.3298
N5360 X3.7117 Y2.3308
N5365 X3.7197 Y2.3349
N5370 X3.7254 Y2.3378
N5375 X3.7276 Y2.3389
N5380 X3.7356 Y2.3426
N5385 X3.7428 Y2.3458
N5390 X3.7436 Y2.3461
N5395 X3.7516 Y2.3494
N5400 X3.7595 Y2.3524
N5405 X3.7631 Y2.3538
N5410 X3.7675 Y2.3553
N5415 X3.7755 Y2.358
N5420 X3.7835 Y2.3604
N5425 X3.7879 Y2.3617
N5430 X3.7915 Y2.3627
N5435 X3.7994 Y2.3648
N5440 X3.8074 Y2.3667
N5445 X3.8154 Y2.3684
N5450 X3.822 Y2.3697
N5455 X3.8234 Y2.37
N5460 X3.8314 Y2.3713
N5465 X3.8393 Y2.3725
N5470 X3.8473 Y2.3735
N5475 X3.8553 Y2.3744
N5480 X3.8633 Y2.3751
N5485 X3.8713 Y2.3756
N5490 X3.8792 Y2.3759
N5495 X3.8872 Y2.3763
N5500 X3.8952
N5505 X4.0149 Y2.3764
N5510 X4.0229
N5515 X4.3899 Y2.3761
N5520 X4.7569 Y2.3764
N5525 X4.7649
N5530 X4.8846 Y2.3763
N5535 X4.8926
N5540 X4.9005 Y2.3759
N5545 X4.9085 Y2.3756
N5550 X4.9165 Y2.3751
N5555 X4.9245 Y2.3744
N5560 X4.9325 Y2.3735
N5565 X4.9404 Y2.3725
N5570 X4.9484 Y2.3713
N5575 X4.9564 Y2.37
N5580 X4.9578 Y2.3697
N5585 X4.9644 Y2.3684
N5590 X4.9723 Y2.3667
N5595 X4.9803 Y2.3648
N5600 X4.9883 Y2.3627
N5605 X4.9919 Y2.3617
N5610 X4.9963 Y2.3604
N5615 X5.0043 Y2.358
N5620 X5.0122 Y2.3553
N5625 X5.0167 Y2.3538
N5630 X5.0202 Y2.3524
N5635 X5.0282 Y2.3494
N5640 X5.0362 Y2.3461
N5645 X5.0369 Y2.3458
N5650 X5.0442 Y2.3426
N5655 X5.0521 Y2.3389
N5660 X5.0544 Y2.3378
N5665 X5.0601 Y2.3349
N5670 X5.0681 Y2.3308
N5675 X5.0698 Y2.3298
N5680 X5.0761 Y2.3263
N5685 X5.0837 Y2.3218
N5690 X5.0841 Y2.3216
N5695 X5.092 Y2.3167
N5700 X5.0963 Y2.3139
N5705 X5.1 Y2.3114
N5710 X5.108 Y2.3059
N5715 X5.116 Y2.3
N5720 X5.1187 Y2.2979
N5725 X5.1239 Y2.2938
N5730 X5.1288 Y2.2899
N5735 X5.1319 Y2.2873
N5740 X5.1381 Y2.2819
N5745 X5.1399 Y2.2804
N5750 X5.1469 Y2.274
N5755 X5.1479 Y2.273
N5760 X5.1552 Y2.266
N5765 X5.1559 Y2.2653
N5770 X5.1629 Y2.258
N5775 X5.1638 Y2.257
N5780 X5.1702 Y2.25
N5785 X5.1718 Y2.2482
N5790 X5.1772 Y2.242
N5795 X5.1798 Y2.2389
N5800 X5.1837 Y2.2341
N5805 X5.1878 Y2.2289
N5810 X5.1899 Y2.2261
N5815 X5.1958 Y2.2181
N5820 X5.2013 Y2.2101
N5825 X5.2037 Y2.2065
N5830 X5.2065 Y2.2022
N5835 X5.2115 Y2.1942
N5840 X5.2117 Y2.1938
N5845 X5.2162 Y2.1862
N5850 X5.2197 Y2.1799
N5855 X5.2206 Y2.1782
N5860 X5.2248 Y2.1702
N5865 X5.2277 Y2.1645
N5870 X5.2288 Y2.1623
N5875 X5.2325 Y2.1543
N5880 X5.2357 Y2.1471
N5885 X5.236 Y2.1463
N5890 X5.2393 Y2.1383
N5895 X5.2423 Y2.1303
N5900 X5.2436 Y2.1268
N5905 X5.2452 Y2.1224
N5910 X5.2479 Y2.1144
N5915 X5.2503 Y2.1064
N5920 X5.2516 Y2.102
N5925 X5.2526 Y2.0984
N5930 X5.2547 Y2.0904
N5935 X5.2566 Y2.0825
N5940 X5.2583 Y2.0745
N5945 X5.2596 Y2.0679
N5950 X5.2598 Y2.0665
N5955 X5.2612 Y2.0585
N5960 X5.2624 Y2.0505
N5965 X5.2634 Y2.0426
N5970 X5.2643 Y2.0346
N5975 X5.2649 Y2.0266
N5980 X5.2654 Y2.0186
N5985 X5.2658 Y2.0107
N5990 X5.2662 Y2.0027
N5995 Y1.9947
N6000 Y1.875
N6005 Y1.867
N6010 X5.266 Y1.5
N6015 X5.2662 Y1.133
N6020 Y1.125
N6025 Y1.0053
N6030 Y0.9973
N6035 X5.2658 Y0.9893
N6040 X5.2654 Y0.9814
N6045 X5.2649 Y0.9734
N6050 X5.2643 Y0.9654
N6055 X5.2634 Y0.9574
N6060 X5.2624 Y0.9495
N6065 X5.2612 Y0.9415
N6070 X5.2598 Y0.9335
N6075 X5.2596 Y0.9321
N6080 X5.2583 Y0.9255
N6085 X5.2566 Y0.9175
N6090 X5.2547 Y0.9096
N6095 X5.2526 Y0.9016
N6100 X5.2516 Y0.898
N6105 X5.2503 Y0.8936
N6110 X5.2479 Y0.8856
N6115 X5.2452 Y0.8776
N6120 X5.2436 Y0.8732
N6125 X5.2423 Y0.8697
N6130 X5.2393 Y0.8617
N6135 X5.236 Y0.8537
N6140 X5.2357 Y0.8529
N6145 X5.2325 Y0.8457
N6150 X5.2288 Y0.8377
N6155 X5.2277 Y0.8355
N6160 X5.2248 Y0.8298
N6165 X5.2206 Y0.8218
N6170 X5.2197 Y0.8201
N6175 X5.2162 Y0.8138
N6180 X5.2117 Y0.8062
N6185 X5.2115 Y0.8058
N6190 X5.2065 Y0.7978
N6195 X5.2037 Y0.7935
N6200 X5.2013 Y0.7899
N6205 X5.1958 Y0.7819
N6210 X5.1899 Y0.7739
N6215 X5.1878 Y0.7711
N6220 X5.1837 Y0.7659
N6225 X5.1798 Y0.7611
N6230 X5.1772 Y0.758
N6235 X5.1718 Y0.7518
N6240 X5.1702 Y0.75
N6245 X5.1638 Y0.743
N6250 X5.1629 Y0.742
N6255 X5.1559 Y0.7347
N6260 X5.1552 Y0.734
N6265 X5.1479 Y0.727
N6270 X5.1469 Y0.726
N6275 X5.1399 Y0.7196
N6280 X5.1381 Y0.7181
N6285 X5.1319 Y0.7127
N6290 X5.1288 Y0.7101
N6295 X5.1239 Y0.7062
N6300 X5.1187 Y0.7021
N6305 X5.116 Y0.7
N6310 X5.108 Y0.6941
N6315 X5.1 Y0.6886
N6320 X5.0963 Y0.6861
N6325 X5.092 Y0.6833
N6330 X5.0841 Y0.6784
N6335 X5.0837 Y0.6782
N6340 X5.0761 Y0.6737
N6345 X5.0698 Y0.6702
N6350 X5.0681 Y0.6692
N6355 X5.0601 Y0.6651
N6360 X5.0544 Y0.6622
N6365 X5.0521 Y0.6611
N6370 X5.0442 Y0.6574
N6375 X5.0369 Y0.6542
N6380 X5.0362 Y0.6539
N6385 X5.0282 Y0.6506
N6390 X5.0202 Y0.6476
N6395 X5.0167 Y0.6462
N6400 X5.0122 Y0.6447
N6405 X5.0043 Y0.642
N6410 X4.9963 Y0.6396
N6415 X4.9919 Y0.6383
N6420 X4.9883 Y0.6373
N6425 X4.9803 Y0.6352
N6430 X4.9723 Y0.6333
N6435 X4.9644 Y0.6316
N6440 X4.9578 Y0.6303
N6445 X4.9564 Y0.63
N6450 X4.9484 Y0.6287
N6455 X4.9404 Y0.6275
N6460 X4.9325 Y0.6265
N6465 X4.9245 Y0.6256
N6470 X4.9165 Y0.6249
N6475 X4.9085 Y0.6244
N6480 X4.9005 Y0.6241
N6485 X4.8926 Y0.6237
N6490 X4.8846
N6495 X4.7649 Y0.6236
N6500 X4.7569
N6505 X4.3899 Y0.6239
N6510 X4.0229 Y0.6236
N6515 X4.0149
N6520 X3.8952 Y0.6237
N6525 X3.8872
N6530 X3.8792 Y0.6241
N6535 X3.8713 Y0.6244
N6540 X3.8633 Y0.6249
N6545 X3.8553 Y0.6256
N6550 X3.8473 Y0.6265
N6555 X3.8393 Y0.6275
N6560 X3.8314 Y0.6287
N6565 X3.8234 Y0.63
N6570 X3.822 Y0.6303
N6575 X3.8154 Y0.6316
N6580 X3.8074 Y0.6333
N6585 X3.7994 Y0.6352
N6590 X3.7915 Y0.6373
N6595 X3.7879 Y0.6383
N6600 X3.7835 Y0.6396
N6605 X3.7755 Y0.642
N6610 X3.7675 Y0.6447
N6615 X3.7631 Y0.6462
N6620 X3.7595 Y0.6476
N6625 X3.7516 Y0.6506
N6630 X3.7436 Y0.6539
N6635 X3.7428 Y0.6542
N6640 X3.7356 Y0.6574
N6645 X3.7276 Y0.6611
N6650 X3.7254 Y0.6622
N6655 X3.7197 Y0.6651
N6660 X3.7117 Y0.6692
N6665 X3.71 Y0.6702
N6670 X3.7037 Y0.6737
N6675 X3.696 Y0.6782
N6680 X3.6957 Y0.6784
N6685 X3.6877 Y0.6833
N6690 X3.6834 Y0.6861
N6695 X3.6798 Y0.6886
N6700 X3.6718 Y0.6941
N6705 X3.6638 Y0.7
N6710 X3.661 Y0.7021
N6715 X3.6558 Y0.7062
N6720 X3.651 Y0.7101
N6725 X3.6478 Y0.7127
N6730 X3.6417 Y0.7181
N6735 X3.6399 Y0.7196
N6740 X3.6329 Y0.726
N6745 X3.6319 Y0.727
N6750 X3.6246 Y0.734
N6755 X3.6239 Y0.7347
N6760 X3.6168 Y0.742
N6765 X3.6159 Y0.743
N6770 X3.6095 Y0.75
N6775 X3.6079 Y0.7518
N6780 X3.6026 Y0.758
N6785 X3.6 Y0.7611
N6790 X3.5961 Y0.7659
N6795 X3.592 Y0.7711
N6800 X3.5899 Y0.7739
N6805 X3.584 Y0.7819
N6810 X3.5785 Y0.7899
N6815 X3.576 Y0.7935
N6820 X3.5732 Y0.7978
N6825 X3.5683 Y0.8058
N6830 X3.5681 Y0.8062
N6835 X3.5636 Y0.8138
N6840 X3.5601 Y0.8201
N6845 X3.5591 Y0.8218
N6850 X3.5549 Y0.8298
N6855 X3.5521 Y0.8355
N6860 X3.551 Y0.8377
N6865 X3.5473 Y0.8457
N6870 X3.5441 Y0.8529
N6875 X3.5438 Y0.8537
N6880 X3.5405 Y0.8617
N6885 X3.5374 Y0.8697
N6890 X3.5361 Y0.8732
N6895 X3.5346 Y0.8776
N6900 X3.5319 Y0.8856
N6905 X3.5294 Y0.8936
N6910 X3.5282 Y0.898
N6915 X3.5272 Y0.9016
N6920 X3.5251 Y0.9096
N6925 X3.5232 Y0.9175
N6930 X3.5215 Y0.9255
N6935 X3.5202 Y0.9321
N6940 X3.5199 Y0.9335
N6945 X3.5186 Y0.9415
N6950 X3.5174 Y0.9495
N6955 X3.5163 Y0.9574
N6960 X3.5155 Y0.9654
N6965 X3.5148 Y0.9734
N6970 X3.5143 Y0.9814
N6975 X3.5139 Y0.9893
N6980 X3.5136 Y0.9973
N6985 Y1.0053
N6990 Y1.0732
N6995 X3.5135 Y1.125
N7000 Y1.133
N7005 X3.5138 Y1.5
N7010 Y1.5322
N7015 X3.5137 Y1.5462
N7020 X3.5134 Y1.5602 Z0.0249
N7025 X3.513 Y1.5741 Z0.0248
N7030 X3.5124 Y1.5881 Z0.0247
N7035 X3.5117 Y1.6021 Z0.0245
N7040 X3.5108 Y1.6161 Z0.0243
N7045 X3.5103 Y1.623 Z0.0242
N7050 X3.5098 Y1.63 Z0.0241
N7055 X3.5093 Y1.637 Z0.024
N7060 X3.5088 Y1.644 Z0.0239
N7065 X3.5082 Y1.651 Z0.0237
N7070 X3.5076 Y1.658 Z0.0236
N7075 X3.507 Y1.665 Z0.0234
N7080 X3.5064 Y1.6719 Z0.0233
N7085 X3.5057 Y1.6789 Z0.0231
N7090 X3.505 Y1.6859 Z0.0229
N7095 X3.5043 Y1.6929 Z0.0227
N7100 X3.5036 Y1.6999 Z0.0226
N7105 X3.5029 Y1.7069 Z0.0224
N7110 X3.5021 Y1.7139 Z0.0222
N7115 X3.5017 Y1.7174 Z0.0221
N7120 X3.5013 Y1.7208 Z0.022
N7125 X3.501 Y1.7243 Z0.0219
N7130 X3.5006 Y1.7278 Z0.0218
N7135 X3.5002 Y1.7313 Z0.0216
N7140 X3.4997 Y1.7348 Z0.0215
N7145 X3.4993 Y1.7383 Z0.0214
N7150 X3.4989 Y1.7418 Z0.0213
N7155 X3.4985 Y1.7453 Z0.0212
N7160 X3.4981 Y1.7488 Z0.0211
N7165 X3.4976 Y1.7523 Z0.021
N7170 X3.4972 Y1.7558 Z0.0209
N7175 X3.4968 Y1.7593 Z0.0207
N7180 X3.4963 Y1.7628 Z0.0206
N7185 X3.4959 Y1.7663 Z0.0205
N7190 X3.4954 Y1.7697 Z0.0204
N7195 X3.4949 Y1.7732 Z0.0203
N7200 X3.4945 Y1.7767 Z0.0201
N7205 X3.4941 Y1.7802 Z0.02
N7210 X3.4936 Y1.7837 Z0.0199
N7215 X3.4932 Y1.7872 Z0.0198
N7220 X3.4927 Y1.7907 Z0.0197
N7225 X3.4923 Y1.7942 Z0.0195
N7230 X3.4919 Y1.7977 Z0.0194
N7235 X3.4914 Y1.8012 Z0.0193
N7240 X3.491 Y1.8047 Z0.0192
N7245 X3.4906 Y1.8082 Z0.019
N7250 X3.4901 Y1.8117 Z0.0189
N7255 X3.4897 Y1.8152 Z0.0188
N7260 X3.4892 Y1.8186 Z0.0187
N7265 X3.4888 Y1.8221 Z0.0186
N7270 X3.4884 Y1.8256 Z0.0184
N7275 X3.4879 Y1.8291 Z0.0183
N7280 X3.4875 Y1.8326 Z0.0182
N7285 X3.4871 Y1.8361 Z0.0181
N7290 X3.4866 Y1.8396 Z0.0179
N7295 X3.4862 Y1.8431 Z0.0178
N7300 X3.4857 Y1.8466 Z0.0177
N7305 X3.4853 Y1.8501 Z0.0176
N7310 X3.4849 Y1.8536 Z0.0174
N7315 X3.4845 Y1.8571 Z0.0173
N7320 X3.484 Y1.8606 Z0.0172
N7325 X3.4836 Y1.8641 Z0.0171
N7330 X3.4832 Y1.8675 Z0.017
N7335 X3.4828 Y1.871 Z0.0168
N7340 X3.4824 Y1.8745 Z0.0167
N7345 X3.482 Y1.878 Z0.0166
N7350 X3.4816 Y1.8815 Z0.0165
N7355 X3.4812 Y1.885 Z0.0163
N7360 X3.4808 Y1.8885 Z0.0162
N7365 X3.4805 Y1.892 Z0.0161
N7370 X3.4801 Y1.8955 Z0.016
N7375 X3.4797 Y1.899 Z0.0158
N7380 X3.4793 Y1.9025 Z0.0157
N7385 X3.4789 Y1.906 Z0.0156
N7390 X3.4785 Y1.9095 Z0.0155
N7395 X3.4781 Y1.913 Z0.0154
N7400 X3.4777 Y1.9164 Z0.0152
N7405 X3.4774 Y1.9199 Z0.0151
N7410 X3.477 Y1.9234 Z0.015
N7415 X3.4766 Y1.9269 Z0.0149
N7420 X3.4762 Y1.9304 Z0.0147
N7425 X3.4758 Y1.9339 Z0.0146
N7430 X3.4754 Y1.9374 Z0.0145
N7435 X3.4746 Y1.9444 Z0.0143
N7440 X3.4735 Y1.9549 Z0.0139
N7445 X3.4727 Y1.9618 Z0.0136
N7450 X3.4723 Y1.9653 Z0.0135
N7455 X3.4715 Y1.9723 Z0.0133
N7460 X3.4688 Y1.9966 Z0.0124
N7465 X3.4685 Y1.9999 Z0.0123
N7470 X3.4681 Y2.0032 Z0.0122
N7475 X3.4679 Y2.0066 Z0.0121
N7480 X3.4676 Y2.0098 Z0.012
N7485 X3.4674 Y2.0131 Z0.0118
N7490 X3.4672 Y2.0163 Z0.0117
N7495 X3.467 Y2.0196 Z0.0116
N7500 X3.4668 Y2.0229 Z0.0115
N7505 X3.4667 Y2.0262 Z0.0114
N7510 X3.4665 Y2.0294 Z0.0113
N7515 Y2.0327 Z0.0112
N7520 X3.4664 Y2.0394 Z0.0109
N7525 X3.4663 Y2.0428 Z0.0108
N7530 X3.4664 Y2.0461 Z0.0107
N7535 Y2.0494 Z0.0106
N7540 X3.4665 Y2.0527 Z0.0105
N7545 X3.4666 Y2.056 Z0.0103
N7550 X3.4667 Y2.0593 Z0.0102
N7555 X3.4668 Y2.0625 Z0.0101
N7560 X3.467 Y2.0658 Z0.01
N7565 X3.4672 Y2.0691 Z0.0099
N7570 X3.4674 Y2.0723 Z0.0098
N7575 X3.4676 Y2.0757 Z0.0097
N7580 X3.4679 Y2.079 Z0.0095
N7585 X3.4682 Y2.0824 Z0.0094
N7590 X3.4685 Y2.0857 Z0.0093
N7595 X3.4689 Y2.089 Z0.0092
N7600 X3.4693 Y2.0923 Z0.0091
N7605 X3.4697 Y2.0957 Z0.009
N7610 X3.4702 Y2.099 Z0.0088
N7615 X3.4706 Y2.1023 Z0.0087
N7620 X3.4711 Y2.1055 Z0.0086
N7625 X3.4717 Y2.1088 Z0.0085
N7630 X3.4722 Y2.1121 Z0.0084
N7635 X3.4727 Y2.1154 Z0.0083
N7640 X3.4734 Y2.1187 Z0.0081
N7645 X3.474 Y2.1219 Z0.008
N7650 X3.4746 Y2.1252 Z0.0079
N7655 X3.4753 Y2.1285 Z0.0078
N7660 X3.476 Y2.1319 Z0.0077
N7665 X3.4767 Y2.1352 Z0.0075
N7670 X3.4775 Y2.1385 Z0.0074
N7675 X3.4783 Y2.1418 Z0.0073
N7680 X3.4791 Y2.145 Z0.0072
N7685 X3.4799 Y2.1483 Z0.0071
N7690 X3.4808 Y2.1515 Z0.007
N7695 X3.4816 Y2.1547 Z0.0068
N7700 X3.4825 Y2.158 Z0.0067
N7705 X3.4835 Y2.1612 Z0.0066
N7710 X3.4844 Y2.1644 Z0.0065
N7715 X3.4854 Y2.1677 Z0.0064
N7720 X3.4864 Y2.171 Z0.0063
N7725 X3.4875 Y2.1742 Z0.0061
N7730 X3.4885 Y2.1775 Z0.006
N7735 X3.4897 Y2.1807 Z0.0059
N7740 X3.4908 Y2.1838 Z0.0058
N7745 X3.4919 Y2.187 Z0.0057
N7750 X3.4931 Y2.1902 Z0.0055
N7755 X3.4943 Y2.1934 Z0.0054
N7760 X3.4955 Y2.1966 Z0.0053
N7765 X3.4968 Y2.1998 Z0.0052
N7770 X3.4981 Y2.203 Z0.0051
N7775 X3.4994 Y2.2061 Z0.0049
N7780 X3.5008 Y2.2092 Z0.0048
N7785 X3.5021 Y2.2124 Z0.0047
N7790 X3.5035 Y2.2155 Z0.0046
N7795 X3.5049 Y2.2186 Z0.0045
N7800 X3.5064 Y2.2217 Z0.0044
N7805 X3.5079 Y2.2248 Z0.0043
N7810 X3.5094 Y2.2279 Z0.0041
N7815 X3.5109 Y2.231 Z0.004
N7820 X3.5125 Y2.234 Z0.0039
N7825 X3.514 Y2.237 Z0.0038
N7830 X3.5156 Y2.24 Z0.0037
N7835 X3.5173 Y2.2431 Z0.0036
N7840 X3.5189 Y2.2461 Z0.0035
N7845 X3.5206 Y2.2491 Z0.0034
N7850 X3.5223 Y2.2521 Z0.0033
N7855 X3.5258 Y2.258 Z0.0031
N7860 X3.5294 Y2.2639 Z0.0029
N7865 X3.5332 Y2.2697 Z0.0027
N7870 X3.537 Y2.2755 Z0.0025
N7875 X3.5409 Y2.2812 Z0.0023
N7880 X3.545 Y2.2868 Z0.0022
N7885 X3.5491 Y2.2923 Z0.002
N7890 X3.5534 Y2.2978 Z0.0018
N7895 X3.5577 Y2.3032 Z0.0017
N7900 X3.5622 Y2.3085 Z0.0015
N7905 X3.5667 Y2.3138 Z0.0014
N7910 X3.5713 Y2.319 Z0.0012
N7915 X3.5761 Y2.324 Z0.0011
N7920 X3.5809 Y2.3291 Z0.001
N7925 X3.5858 Y2.334 Z0.0008
N7930 X3.5908 Y2.3388 Z0.0007
N7935 X3.5959 Y2.3436 Z0.0006
N7940 X3.6011 Y2.3483 Z0.0005
N7945 X3.6117 Y2.3573 Z0.0004
N7950 X3.6226 Y2.366 Z0.0002
N7955 X3.6339 Y2.3743 Z0.0001
N7960 X3.6454 Y2.3822 Z0
N7965 X3.6572 Y2.3896
N7970 X3.6625 Y2.3924
N7975 X3.6638 Y2.3932
N7980 X3.6646 Y2.3936
N7985 X3.6718 Y2.3976
N7990 X3.6792 Y2.4016
N7995 X3.6798 Y2.4019
N8000 X3.6877 Y2.406
N8005 X3.6951 Y2.4096
N8010 X3.6957 Y2.4099
N8015 X3.7037 Y2.4136
N8020 X3.7117 Y2.4171
N8025 X3.7128 Y2.4176
N8030 X3.7197 Y2.4204
N8035 X3.7276 Y2.4236
N8040 X3.7329 Y2.4256
N8045 X3.7356 Y2.4266
N8050 X3.7436 Y2.4294
N8055 X3.7516 Y2.432
N8060 X3.7563 Y2.4335
N8065 X3.7595 Y2.4345
N8070 X3.7675 Y2.4369
N8075 X3.7755 Y2.439
N8080 X3.7835 Y2.441
N8085 X3.7855 Y2.4415
N8090 X3.7915 Y2.4429
N8095 X3.7994 Y2.4446
N8100 X3.8074 Y2.4462
N8105 X3.8154 Y2.4476
N8110 X3.8234 Y2.4489
N8115 X3.8278 Y2.4495
N8120 X3.8314 Y2.45
N8125 X3.8393 Y2.451
N8130 X3.8473 Y2.4518
N8135 X3.8553 Y2.4525
N8140 X3.8633 Y2.453
N8145 X3.8713 Y2.4535
N8150 X3.8792 Y2.4538
N8155 X3.8872 Y2.4539
N8160 X3.8952
N8165 X3.967 Y2.454
N8170 X3.975
N8175 X4.3899 Y2.4539
N8180 X4.8048 Y2.454
N8185 X4.8128
N8190 X4.8846 Y2.4539
N8195 X4.8926
N8200 X4.9005 Y2.4538
N8205 X4.9085 Y2.4535
N8210 X4.9165 Y2.453
N8215 X4.9245 Y2.4525
N8220 X4.9325 Y2.4518
N8225 X4.9404 Y2.451
N8230 X4.9484 Y2.45
N8235 X4.9519 Y2.4495
N8240 X4.9564 Y2.4489
N8245 X4.9644 Y2.4476
N8250 X4.9723 Y2.4462
N8255 X4.9803 Y2.4446
N8260 X4.9883 Y2.4429
N8265 X4.9942 Y2.4415
N8270 X4.9963 Y2.441
N8275 X5.0043 Y2.439
N8280 X5.0122 Y2.4369
N8285 X5.0202 Y2.4345
N8290 X5.0234 Y2.4335
N8295 X5.0282 Y2.432
N8300 X5.0362 Y2.4294
N8305 X5.0442 Y2.4266
N8310 X5.0469 Y2.4256
N8315 X5.0521 Y2.4236
N8320 X5.0601 Y2.4204
N8325 X5.067 Y2.4176
N8330 X5.0681 Y2.4171
N8335 X5.0761 Y2.4136
N8340 X5.0841 Y2.4099
N8345 X5.0847 Y2.4096
N8350 X5.092 Y2.406
N8355 X5.1 Y2.4019
N8360 X5.1006 Y2.4016
N8365 X5.108 Y2.3976
N8370 X5.1151 Y2.3936
N8375 X5.116 Y2.3932
N8380 X5.1239 Y2.3885
N8385 X5.1285 Y2.3857
N8390 X5.1319 Y2.3835
N8395 X5.1399 Y2.3784
N8400 X5.1409 Y2.3777
N8405 X5.1479 Y2.373
N8410 X5.1525 Y2.3697
N8415 X5.1559 Y2.3673
N8420 X5.1634 Y2.3617
N8425 X5.1638 Y2.3614
N8430 X5.1718 Y2.3552
N8435 X5.1736 Y2.3538
N8440 X5.1798 Y2.3487
N8445 X5.1833 Y2.3458
N8450 X5.1878 Y2.3419
N8455 X5.1924 Y2.3378
N8460 X5.1958 Y2.3348
N8465 X5.2011 Y2.3298
N8470 X5.2037 Y2.3273
N8475 X5.2094 Y2.3218
N8480 X5.2117 Y2.3195
N8485 X5.2172 Y2.3139
N8490 X5.2197 Y2.3112
N8495 X5.2247 Y2.3059
N8500 X5.2277 Y2.3026
N8505 X5.2318 Y2.2979
N8510 X5.2357 Y2.2934
N8515 X5.2386 Y2.2899
N8520 X5.2436 Y2.2837
N8525 X5.2451 Y2.2819
N8530 X5.2513 Y2.274
N8535 X5.2516 Y2.2735
N8540 X5.2572 Y2.266
N8545 X5.2596 Y2.2626
N8550 X5.2628 Y2.258
N8555 X5.2676 Y2.2511
N8560 X5.2683 Y2.25
N8565 X5.2734 Y2.242
N8570 X5.2755 Y2.2386
N8575 X5.2783 Y2.2341
N8580 X5.283 Y2.2261
N8585 X5.2835 Y2.2252
N8590 X5.2875 Y2.2181
N8595 X5.2915 Y2.2107
N8600 X5.2918 Y2.2101
N8605 X5.2959 Y2.2022
N8610 X5.2995 Y2.1948
N8615 X5.2998 Y2.1942
N8620 X5.3035 Y2.1862
N8625 X5.307 Y2.1782
N8630 X5.3075 Y2.1771
N8635 X5.3103 Y2.1702
N8640 X5.3135 Y2.1623
N8645 X5.3154 Y2.157
N8650 X5.3165 Y2.1543
N8655 X5.3193 Y2.1463
N8660 X5.3219 Y2.1383
N8665 X5.3234 Y2.1336
N8670 X5.3244 Y2.1303
N8675 X5.3267 Y2.1224
N8680 X5.3289 Y2.1144
N8685 X5.3309 Y2.1064
N8690 X5.3314 Y2.1043
N8695 X5.3328 Y2.0984
N8700 X5.3345 Y2.0904
N8705 X5.336 Y2.0825
N8710 X5.3375 Y2.0745
N8715 X5.3388 Y2.0665
N8720 X5.3394 Y2.062
N8725 X5.3399 Y2.0585
N8730 X5.3408 Y2.0505
N8735 X5.3417 Y2.0426
N8740 X5.3424 Y2.0346
N8745 X5.3429 Y2.0266
N8750 X5.3434 Y2.0186
N8755 X5.3436 Y2.0107
N8760 X5.3438 Y2.0027
N8765 Y1.9947
N8770 X5.3439 Y1.9229
N8775 Y1.9149
N8780 X5.3438 Y1.5
N8785 X5.3439 Y1.0851
N8790 Y1.0771
N8795 X5.3438 Y1.0053
N8800 Y0.9973
N8805 X5.3436 Y0.9893
N8810 X5.3434 Y0.9814
N8815 X5.3429 Y0.9734
N8820 X5.3424 Y0.9654
N8825 X5.3417 Y0.9574
N8830 X5.3408 Y0.9495
N8835 X5.3399 Y0.9415
N8840 X5.3394 Y0.938
N8845 X5.3388 Y0.9335
N8850 X5.3375 Y0.9255
N8855 X5.336 Y0.9175
N8860 X5.3345 Y0.9096
N8865 X5.3328 Y0.9016
N8870 X5.3314 Y0.8957
N8875 X5.3309 Y0.8936
N8880 X5.3289 Y0.8856
N8885 X5.3267 Y0.8776
N8890 X5.3244 Y0.8697
N8895 X5.3234 Y0.8664
N8900 X5.3219 Y0.8617
N8905 X5.3193 Y0.8537
N8910 X5.3165 Y0.8457
N8915 X5.3154 Y0.843
N8920 X5.3135 Y0.8377
N8925 X5.3103 Y0.8298
N8930 X5.3075 Y0.8229
N8935 X5.307 Y0.8218
N8940 X5.3035 Y0.8138
N8945 X5.2998 Y0.8058
N8950 X5.2995 Y0.8052
N8955 X5.2959 Y0.7978
N8960 X5.2918 Y0.7899
N8965 X5.2915 Y0.7893
N8970 X5.2875 Y0.7819
N8975 X5.2835 Y0.7748
N8980 X5.283 Y0.7739
N8985 X5.2783 Y0.7659
N8990 X5.2755 Y0.7614
N8995 X5.2734 Y0.758
N9000 X5.2683 Y0.75
N9005 X5.2676 Y0.7489
N9010 X5.2628 Y0.742
N9015 X5.2596 Y0.7374
N9020 X5.2572 Y0.734
N9025 X5.2516 Y0.7265
N9030 X5.2513 Y0.726
N9035 X5.2451 Y0.7181
N9040 X5.2436 Y0.7163
N9045 X5.2386 Y0.7101
N9050 X5.2357 Y0.7066
N9055 X5.2318 Y0.7021
N9060 X5.2277 Y0.6974
N9065 X5.2247 Y0.6941
N9070 X5.2197 Y0.6888
N9075 X5.2172 Y0.6861
N9080 X5.2117 Y0.6805
N9085 X5.2094 Y0.6782
N9090 X5.2037 Y0.6727
N9095 X5.2011 Y0.6702
N9100 X5.1958 Y0.6652
N9105 X5.1924 Y0.6622
N9110 X5.1878 Y0.6581
N9115 X5.1833 Y0.6542
N9120 X5.1798 Y0.6513
N9125 X5.1736 Y0.6462
N9130 X5.1718 Y0.6448
N9135 X5.1638 Y0.6386
N9140 X5.1634 Y0.6383
N9145 X5.1559 Y0.6327
N9150 X5.1525 Y0.6303
N9155 X5.1479 Y0.627
N9160 X5.1409 Y0.6223
N9165 X5.1399 Y0.6216
N9170 X5.1319 Y0.6165
N9175 X5.1285 Y0.6143
N9180 X5.1239 Y0.6115
N9185 X5.116 Y0.6068
N9190 X5.1151 Y0.6064
N9195 X5.108 Y0.6024
N9200 X5.1006 Y0.5984
N9205 X5.1 Y0.5981
N9210 X5.092 Y0.594
N9215 X5.0847 Y0.5904
N9220 X5.0841 Y0.5901
N9225 X5.0761 Y0.5864
N9230 X5.0681 Y0.5829
N9235 X5.067 Y0.5824
N9240 X5.0601 Y0.5796
N9245 X5.0521 Y0.5764
N9250 X5.0469 Y0.5744
N9255 X5.0442 Y0.5734
N9260 X5.0362 Y0.5706
N9265 X5.0282 Y0.568
N9270 X5.0234 Y0.5665
N9275 X5.0202 Y0.5655
N9280 X5.0122 Y0.5631
N9285 X5.0043 Y0.561
N9290 X4.9963 Y0.559
N9295 X4.9942 Y0.5585
N9300 X4.9883 Y0.5571
N9305 X4.9803 Y0.5554
N9310 X4.9723 Y0.5538
N9315 X4.9644 Y0.5524
N9320 X4.9564 Y0.5511
N9325 X4.9519 Y0.5505
N9330 X4.9484 Y0.55
N9335 X4.9404 Y0.549
N9340 X4.9325 Y0.5482
N9345 X4.9245 Y0.5475
N9350 X4.9165 Y0.547
N9355 X4.9085 Y0.5465
N9360 X4.9005 Y0.5462
N9365 X4.8926 Y0.5461
N9370 X4.8846
N9375 X4.8128 Y0.546
N9380 X4.8048
N9385 X4.3899 Y0.5461
N9390 X3.975 Y0.546
N9395 X3.967
N9400 X3.8952 Y0.5461
N9405 X3.8872
N9410 X3.8792 Y0.5462
N9415 X3.8713 Y0.5465
N9420 X3.8633 Y0.547
N9425 X3.8553 Y0.5475
N9430 X3.8473 Y0.5482
N9435 X3.8393 Y0.549
N9440 X3.8314 Y0.55
N9445 X3.8278 Y0.5505
N9450 X3.8234 Y0.5511
N9455 X3.8154 Y0.5524
N9460 X3.8074 Y0.5538
N9465 X3.7994 Y0.5554
N9470 X3.7915 Y0.5571
N9475 X3.7855 Y0.5585
N9480 X3.7835 Y0.559
N9485 X3.7755 Y0.561
N9490 X3.7675 Y0.5631
N9495 X3.7595 Y0.5655
N9500 X3.7563 Y0.5665
N9505 X3.7516 Y0.568
N9510 X3.7436 Y0.5706
N9515 X3.7356 Y0.5734
N9520 X3.7329 Y0.5744
N9525 X3.7276 Y0.5764
N9530 X3.7197 Y0.5796
N9535 X3.7128 Y0.5824
N9540 X3.7117 Y0.5829
N9545 X3.7037 Y0.5864
N9550 X3.6957 Y0.5901
N9555 X3.6951 Y0.5904
N9560 X3.6877 Y0.594
N9565 X3.6798 Y0.5981
N9570 X3.6792 Y0.5984
N9575 X3.6718 Y0.6024
N9580 X3.6646 Y0.6064
N9585 X3.6638 Y0.6068
N9590 X3.6558 Y0.6115
N9595 X3.6513 Y0.6143
N9600 X3.6478 Y0.6165
N9605 X3.6399 Y0.6216
N9610 X3.6388 Y0.6223
N9615 X3.6319 Y0.627
N9620 X3.6272 Y0.6303
N9625 X3.6239 Y0.6327
N9630 X3.6164 Y0.6383
N9635 X3.6159 Y0.6386
N9640 X3.6079 Y0.6448
N9645 X3.6062 Y0.6462
N9650 X3.6 Y0.6513
N9655 X3.5965 Y0.6542
N9660 X3.592 Y0.6581
N9665 X3.5873 Y0.6622
N9670 X3.584 Y0.6652
N9675 X3.5786 Y0.6702
N9680 X3.576 Y0.6727
N9685 X3.5704 Y0.6782
N9690 X3.5681 Y0.6805
N9695 X3.5626 Y0.6861
N9700 X3.5601 Y0.6888
N9705 X3.5551 Y0.6941
N9710 X3.5521 Y0.6974
N9715 X3.548 Y0.7021
N9720 X3.5441 Y0.7066
N9725 X3.5412 Y0.7101
N9730 X3.5361 Y0.7163
N9735 X3.5347 Y0.7181
N9740 X3.5285 Y0.726
N9745 X3.5282 Y0.7265
N9750 X3.5226 Y0.734
N9755 X3.5202 Y0.7374
N9760 X3.5169 Y0.742
N9765 X3.5122 Y0.7489
N9770 X3.5115 Y0.75
N9775 X3.5063 Y0.758
N9780 X3.5042 Y0.7614
N9785 X3.5014 Y0.7659
N9790 X3.4967 Y0.7739
N9795 X3.4962 Y0.7748
N9800 X3.4922 Y0.7819
N9805 X3.4883 Y0.7893
N9810 X3.488 Y0.7899
N9815 X3.4839 Y0.7978
N9820 X3.4803 Y0.8052
N9825 X3.48 Y0.8058
N9830 X3.4763 Y0.8138
N9835 X3.4728 Y0.8218
N9840 X3.4723 Y0.8229
N9845 X3.4695 Y0.8298
N9850 X3.4663 Y0.8377
N9855 X3.4643 Y0.843
N9860 X3.4633 Y0.8457
N9865 X3.4605 Y0.8537
N9870 X3.4579 Y0.8617
N9875 X3.4563 Y0.8664
N9880 X3.4553 Y0.8697
N9885 X3.453 Y0.8776
N9890 X3.4509 Y0.8856
N9895 X3.4489 Y0.8936
N9900 X3.4484 Y0.8957
N9905 X3.447 Y0.9016
N9910 X3.4453 Y0.9096
N9915 X3.4437 Y0.9175
N9920 X3.4423 Y0.9255
N9925 X3.441 Y0.9335
N9930 X3.4404 Y0.9379
N9935 X3.4399 Y0.9415
N9940 X3.4389 Y0.9495
N9945 X3.4381 Y0.9574
N9950 X3.4374 Y0.9654
N9955 X3.4368 Y0.9734
N9960 X3.4364 Y0.9814
N9965 X3.4361 Y0.9893
N9970 X3.4359 Y0.9973
N9975 Y1.0053
N9980 Y1.0771
N9985 Y1.0851
N9990 X3.436 Y1.5
N9995 X3.4359 Y1.9149
N10000 Y1.9229
N10005 Y1.9947
N10010 Y2.0027
N10015 X3.4361 Y2.0107
N10020 X3.4364 Y2.0186
N10025 X3.4368 Y2.0266
N10030 X3.4374 Y2.0346
N10035 X3.4381 Y2.0426
N10040 X3.4389 Y2.0505
N10045 X3.4399 Y2.0585
N10050 X3.4404 Y2.0621
N10055 X3.441 Y2.0665
N10060 X3.4423 Y2.0745
N10065 X3.4437 Y2.0825
N10070 X3.4453 Y2.0904
N10075 X3.447 Y2.0984
N10080 X3.4484 Y2.1043
N10085 X3.4489 Y2.1064
N10090 X3.4509 Y2.1144
N10095 X3.453 Y2.1224
N10100 X3.4553 Y2.1303
N10105 X3.4563 Y2.1336
N10110 X3.4579 Y2.1383
N10115 X3.4605 Y2.1463
N10120 X3.4633 Y2.1543
N10125 X3.4643 Y2.157
N10130 X3.4663 Y2.1623
N10135 X3.4695 Y2.1702
N10140 X3.4723 Y2.1771
N10145 X3.4728 Y2.1782
N10150 X3.4763 Y2.1862
N10155 X3.48 Y2.1942
N10160 X3.4803 Y2.1948
N10165 X3.4839 Y2.2022
N10170 X3.488 Y2.2101
N10175 X3.4883 Y2.2107
N10180 X3.4922 Y2.2181
N10185 X3.4962 Y2.2252
N10190 X3.4967 Y2.2261
N10195 X3.5014 Y2.2341
N10200 X3.5042 Y2.2386
N10205 X3.5063 Y2.242
N10210 X3.5115 Y2.25
N10215 X3.5122 Y2.2511
N10220 X3.5169 Y2.258
N10225 X3.5202 Y2.2626
N10230 X3.5226 Y2.266
N10235 X3.5282 Y2.2735
N10240 X3.5285 Y2.274
N10245 X3.5347 Y2.2819
N10250 X3.5361 Y2.2837
N10255 X3.5412 Y2.2899
N10260 X3.5441 Y2.2934
N10265 X3.548 Y2.2979
N10270 X3.5521 Y2.3026
N10275 X3.5551 Y2.3059
N10280 X3.5601 Y2.3112
N10285 X3.5626 Y2.3139
N10290 X3.5681 Y2.3195
N10295 X3.5704 Y2.3218
N10300 X3.576 Y2.3273
N10305 X3.5786 Y2.3298
N10310 X3.584 Y2.3348
N10315 X3.5873 Y2.3378
N10320 X3.592 Y2.3419
N10325 X3.5965 Y2.3458
N10330 X3.6 Y2.3487
N10335 X3.6062 Y2.3538
N10340 X3.6079 Y2.3552
N10345 X3.6159 Y2.3614
N10350 X3.6164 Y2.3617
N10355 X3.6239 Y2.3673
N10360 X3.6272 Y2.3697
N10365 X3.6319 Y2.373
N10370 X3.6388 Y2.3777
N10375 X3.6399 Y2.3784
N10380 X3.6478 Y2.3835
N10385 X3.6513 Y2.3857
N10390 X3.6558 Y2.3885
N10395 X3.6625 Y2.3924
N10400 X3.6728 Y2.3985
N10405 X3.6833 Y2.4041
N10410 X3.6932 Y2.4091 Z-0.0001
N10415 X3.7049 Y2.4147
N10420 X3.7157 Y2.4195 Z-0.0002
N10425 X3.7261 Y2.4239
N10430 X3.7375 Y2.4284 Z-0.0003
N10435 X3.7481 Y2.4323 Z-0.0004
N10440 X3.7597 Y2.4362 Z-0.0006
N10445 X3.7713 Y2.4398 Z-0.0007
N10450 X3.7821 Y2.443 Z-0.0008
N10455 X3.7937 Y2.446 Z-0.001
N10460 X3.8054 Y2.4488 Z-0.0011
N10465 X3.8173 Y2.4513 Z-0.0013
N10470 X3.8292 Y2.4535 Z-0.0015
N10475 X3.8408 Y2.4554 Z-0.0017
N10480 X3.8469 Y2.4563 Z-0.0018
N10485 X3.8531 Y2.4571 Z-0.0019
N10490 X3.8591 Y2.4578 Z-0.002
N10495 X3.8652 Y2.4584 Z-0.0021
N10500 X3.871 Y2.459 Z-0.0023
N10505 X3.8769 Y2.4595 Z-0.0024
N10510 X3.8828 Y2.4599 Z-0.0025
N10515 X3.8887 Y2.4601 Z-0.0026
N10520 X3.8956 Y2.4604 Z-0.0028
N10525 X3.9025 Y2.4608 Z-0.0029
N10530 X3.9096 Y2.4611 Z-0.0031
N10535 X3.9166 Y2.4615 Z-0.0032
N10540 X3.9237 Y2.4618 Z-0.0034
N10545 X3.9307 Y2.4622 Z-0.0035
N10550 X3.9377 Y2.4626 Z-0.0037
N10555 X3.9448 Y2.463 Z-0.0039
N10560 X3.9518 Y2.4634 Z-0.0041
N10565 X3.9589 Y2.4638 Z-0.0042
N10570 X3.9659 Y2.4642 Z-0.0044
N10575 X3.9729 Y2.4646 Z-0.0046
N10580 X3.98 Y2.465 Z-0.0048
N10585 X3.987 Y2.4655 Z-0.005
N10590 X3.9941 Y2.4659 Z-0.0052
N10595 X4.0011 Y2.4663 Z-0.0054
N10600 X4.0081 Y2.4668 Z-0.0056
N10605 X4.0117 Y2.467 Z-0.0057
N10610 X4.0152 Y2.4672 Z-0.0058
N10615 X4.0187 Y2.4675 Z-0.0059
N10620 X4.0222 Y2.4677 Z-0.006
N10625 X4.0258 Y2.4679 Z-0.0061
N10630 X4.0293 Y2.4682 Z-0.0062
N10635 X4.0328 Y2.4684 Z-0.0063
N10640 X4.0363 Y2.4686 Z-0.0064
N10645 X4.0398 Y2.4688 Z-0.0065
N10650 X4.0434 Y2.4691 Z-0.0066
N10655 X4.0469 Y2.4693 Z-0.0067
N10660 X4.0504 Y2.4695 Z-0.0068
N10665 X4.0539 Y2.4697 Z-0.0069
N10670 X4.0574 Y2.47 Z-0.007
N10675 X4.061 Y2.4702 Z-0.0071
N10680 X4.0645 Y2.4704 Z-0.0073
N10685 X4.068 Y2.4707 Z-0.0074
N10690 X4.0715 Y2.4709 Z-0.0075
N10695 X4.075 Y2.4711 Z-0.0076
N10700 X4.0786 Y2.4714 Z-0.0077
N10705 X4.0821 Y2.4716 Z-0.0078
N10710 X4.0856 Y2.4718 Z-0.0079
N10715 X4.0891 Y2.4721 Z-0.0081
N10720 X4.0927 Y2.4723 Z-0.0082
N10725 X4.0962 Y2.4725 Z-0.0083
N10730 X4.0997 Y2.4728 Z-0.0084
N10735 X4.1032 Y2.473 Z-0.0085
N10740 X4.1067 Y2.4733 Z-0.0086
N10745 X4.1103 Y2.4735 Z-0.0088
N10750 X4.1138 Y2.4737 Z-0.0089
N10755 X4.1173 Y2.474 Z-0.009
N10760 X4.1208 Y2.4742 Z-0.0091
N10765 X4.1243 Y2.4745 Z-0.0092
N10770 X4.1279 Y2.4747 Z-0.0094
N10775 X4.1314 Y2.475 Z-0.0095
N10780 X4.1349 Y2.4752 Z-0.0096
N10785 X4.1384 Y2.4755 Z-0.0097
N10790 X4.142 Y2.4757 Z-0.0099
N10795 X4.1455 Y2.476 Z-0.01
N10800 X4.149 Y2.4762 Z-0.0101
N10805 X4.1525 Y2.4765 Z-0.0102
N10810 X4.156 Y2.4767 Z-0.0103
N10815 X4.1596 Y2.477 Z-0.0105
N10820 X4.1631 Y2.4772 Z-0.0106
N10825 X4.1666 Y2.4775 Z-0.0107
N10830 X4.1701 Y2.4777 Z-0.0108
N10835 X4.1736 Y2.478 Z-0.011
N10840 X4.1772 Y2.4782 Z-0.0111
N10845 X4.1807 Y2.4785 Z-0.0112
N10850 X4.1842 Y2.4788 Z-0.0113
N10855 X4.1877 Y2.479 Z-0.0115
N10860 X4.1948 Y2.4795 Z-0.0117
N10865 X4.1983 Y2.4797 Z-0.0118
N10870 X4.2018 Y2.48 Z-0.012
N10875 X4.2053 Y2.4802 Z-0.0121
N10880 X4.2089 Y2.4805 Z-0.0122
N10885 X4.2124 Y2.4807 Z-0.0123
N10890 X4.2159 Y2.4809 Z-0.0124
N10895 X4.2194 Y2.4812 Z-0.0126
N10900 X4.2229 Y2.4814 Z-0.0127
N10905 X4.2265 Y2.4817 Z-0.0128
N10910 X4.23 Y2.4819 Z-0.0129
N10915 X4.2335 Y2.4821 Z-0.0131
N10920 X4.237 Y2.4824 Z-0.0132
N10925 X4.2406 Y2.4826 Z-0.0133
N10930 X4.2441 Y2.4829 Z-0.0134
N10935 X4.2476 Y2.4831 Z-0.0136
N10940 X4.2511 Y2.4833 Z-0.0137
N10945 X4.2546 Y2.4836 Z-0.0138
N10950 X4.2582 Y2.4838 Z-0.0139
N10955 X4.2617 Y2.4841 Z-0.014
N10960 X4.2652 Y2.4843 Z-0.0142
N10965 X4.2687 Y2.4846 Z-0.0143
N10970 X4.2722 Y2.4848 Z-0.0144
N10975 X4.2793 Y2.4852 Z-0.0147
N10980 X4.2828 Y2.4855 Z-0.0148
N10985 X4.2899 Y2.4859 Z-0.015
N10990 X4.3004 Y2.4866 Z-0.0154
N10995 X4.3075 Y2.4871 Z-0.0156
N11000 X4.311 Y2.4873 Z-0.0158
N11005 X4.318 Y2.4877 Z-0.016
N11010 X4.3286 Y2.4884 Z-0.0164
N11015 X4.3356 Y2.4889 Z-0.0166
N11020 X4.3392 Y2.4891 Z-0.0168
N11025 X4.3462 Y2.4895 Z-0.017
N11030 X4.3568 Y2.4902 Z-0.0174
N11035 X4.3638 Y2.4907 Z-0.0176
N11040 X4.3673 Y2.4909 Z-0.0177
N11045 X4.3744 Y2.4914 Z-0.018
N11050 X4.3849 Y2.492 Z-0.0184
N11055 X4.392 Y2.4925 Z-0.0186
N11060 X4.3955 Y2.4927 Z-0.0187
N11065 X4.4025 Y2.4932 Z-0.019
N11070 X4.4061 Y2.4934 Z-0.0191
N11075 X4.4096 Y2.4936 Z-0.0192
N11080 X4.4166 Y2.4941 Z-0.0195
N11085 X4.4202 Y2.4943 Z-0.0196
N11090 X4.4237 Y2.4945 Z-0.0197
N11095 X4.4307 Y2.4949 Z-0.02
N11100 X4.4518 Y2.4962 Z-0.0207
N11105 X4.4624 Y2.4968 Z-0.0211
N11110 X4.4695 Y2.4972 Z-0.0213
N11115 X4.4906 Y2.4985 Z-0.0221
N11120 X4.4976 Y2.4989 Z-0.0223
N11125 X4.5293 Y2.5008 Z-0.0234
N11130 X4.5364 Y2.5013 Z-0.0237
N11135 X4.5751 Y2.5035 Z-0.025
N11140 X4.5786 Y2.5037 Z-0.0251
N11145 X4.6526 Y2.5079 Z-0.0277
N11150 X4.6561 Y2.5081 Z-0.0278
N11155 X4.6913 Y2.51 Z-0.0291
N11160 X4.7019 Y2.5106 Z-0.0294
N11165 X4.7089 Y2.511 Z-0.0297
N11170 X4.7159 Y2.5114 Z-0.0299
N11175 X4.7195 Y2.5116 Z-0.0301
N11180 X4.7265 Y2.512 Z-0.0303
N11185 X4.7476 Y2.5131 Z-0.031
N11190 X4.7547 Y2.5134 Z-0.0313
N11195 X4.7723 Y2.5144 Z-0.0319
N11200 X4.7758 Y2.5145 Z-0.032
N11205 X4.7828 Y2.5149 Z-0.0323
N11210 X4.7934 Y2.5155 Z-0.0326
N11215 X4.8005 Y2.5158 Z-0.0329
N11220 X4.804 Y2.516 Z-0.033
N11225 X4.811 Y2.5164 Z-0.0333
N11230 X4.8216 Y2.5169 Z-0.0336
N11235 X4.8286 Y2.5173 Z-0.0339
N11240 X4.8321 Y2.5175 Z-0.034
N11245 X4.8392 Y2.5179 Z-0.0342
N11250 X4.8497 Y2.5184 Z-0.0346
N11255 X4.8568 Y2.5188 Z-0.0349
N11260 X4.8603 Y2.519 Z-0.035
N11265 X4.8674 Y2.5193 Z-0.0352
N11270 X4.8779 Y2.5198 Z-0.0356
N11275 X4.8849 Y2.5202 Z-0.0358
N11280 X4.8884 Y2.5204 Z-0.036
N11285 X4.8918 Y2.5205 Z-0.0361
N11290 X4.8952 Y2.5206 Z-0.0362
N11295 X4.8986 Y2.5208 Z-0.0363
N11300 X4.902 Y2.5209 Z-0.0364
N11305 X4.9054 Z-0.0366
N11310 X4.9123 Y2.521 Z-0.0368
N11315 X4.9157 Z-0.0369
N11320 X4.9192 Z-0.037
N11325 X4.9226 Y2.5209 Z-0.0372
N11330 X4.926 Z-0.0373
N11335 X4.9294 Y2.5208 Z-0.0374
N11340 X4.9362 Y2.5205 Z-0.0376
N11345 X4.9396 Y2.5204 Z-0.0378
N11350 X4.943 Y2.5202 Z-0.0379
N11355 X4.9465 Y2.52 Z-0.038
N11360 X4.9499 Y2.5198 Z-0.0381
N11365 X4.9533 Y2.5196 Z-0.0382
N11370 X4.9567 Y2.5193 Z-0.0384
N11375 X4.9601 Y2.519 Z-0.0385
N11380 X4.9635 Y2.5187 Z-0.0386
N11385 X4.967 Y2.5184 Z-0.0387
N11390 X4.9704 Y2.518 Z-0.0388
N11395 X4.9738 Y2.5176 Z-0.039
N11400 X4.9772 Y2.5172 Z-0.0391
N11405 X4.9806 Y2.5168 Z-0.0392
N11410 X4.984 Y2.5163 Z-0.0393
N11415 X4.9874 Y2.5159 Z-0.0394
N11420 X4.9908 Y2.5154 Z-0.0396
N11425 X4.9942 Y2.5149 Z-0.0397
N11430 X5.001 Y2.5138 Z-0.0399
N11435 X5.0044 Y2.5132 Z-0.04
N11440 X5.0078 Y2.5126 Z-0.0402
N11445 X5.0146 Y2.5113 Z-0.0404
N11450 X5.018 Y2.5107 Z-0.0405
N11455 X5.0214 Y2.5099 Z-0.0406
N11460 X5.0247 Y2.5092 Z-0.0407
N11465 X5.0281 Y2.5085 Z-0.0409
N11470 X5.0315 Y2.5077 Z-0.041
N11475 X5.0348 Y2.5069 Z-0.0411
N11480 X5.0382 Y2.5061 Z-0.0412
N11485 X5.0415 Y2.5053 Z-0.0413
N11490 X5.0449 Y2.5045 Z-0.0414
N11495 X5.0482 Y2.5036 Z-0.0415
N11500 X5.0515 Y2.5027 Z-0.0417
N11505 X5.0548 Y2.5017 Z-0.0418
N11510 X5.0582 Y2.5008 Z-0.0419
N11515 X5.0615 Y2.4998 Z-0.042
N11520 X5.0648 Y2.4988 Z-0.0421
N11525 X5.0681 Y2.4978 Z-0.0422
N11530 X5.0714 Y2.4967 Z-0.0423
N11535 X5.0747 Y2.4956 Z-0.0424
N11540 X5.078 Y2.4945 Z-0.0425
N11545 X5.0813 Y2.4934 Z-0.0426
N11550 X5.0846 Y2.4923 Z-0.0428
N11555 X5.0878 Y2.4911 Z-0.0429
N11560 X5.0911 Y2.49 Z-0.043
N11565 X5.0943 Y2.4888 Z-0.0431
N11570 X5.0976 Y2.4875 Z-0.0432
N11575 X5.1008 Y2.4863 Z-0.0433
N11580 X5.1041 Y2.485 Z-0.0434
N11585 X5.1073 Y2.4837 Z-0.0435
N11590 X5.1105 Y2.4824 Z-0.0436
N11595 X5.1137 Y2.4811 Z-0.0437
N11600 X5.1168 Y2.4797 Z-0.0438
N11605 X5.1232 Y2.477 Z-0.044
N11610 X5.1295 Y2.4741 Z-0.0442
N11615 X5.1358 Y2.4711 Z-0.0444
N11620 X5.1421 Y2.4681 Z-0.0446
N11625 X5.1483 Y2.465 Z-0.0448
N11630 X5.1544 Y2.4618 Z-0.045
N11635 X5.1606 Y2.4585 Z-0.0451
N11640 X5.1667 Y2.4551 Z-0.0453
N11645 X5.1728 Y2.4516 Z-0.0455
N11650 X5.1787 Y2.4481 Z-0.0457
N11655 X5.1847 Y2.4444 Z-0.0459
N11660 X5.1906 Y2.4407 Z-0.046
N11665 X5.1965 Y2.4369 Z-0.0462
N11670 X5.2023 Y2.433 Z-0.0464
N11675 X5.2081 Y2.4291 Z-0.0465
N11680 X5.2138 Y2.425 Z-0.0467
N11685 X5.2195 Y2.4209 Z-0.0468
N11690 X5.225 Y2.4167 Z-0.047
N11695 X5.2306 Y2.4125 Z-0.0471
N11700 X5.2361 Y2.4081 Z-0.0473
N11705 X5.2415 Y2.4037 Z-0.0474
N11710 X5.2469 Y2.3992 Z-0.0476
N11715 X5.2522 Y2.3946 Z-0.0477
N11720 X5.2574 Y2.39 Z-0.0478
N11725 X5.2626 Y2.3852 Z-0.048
N11730 X5.2677 Y2.3805 Z-0.0481
N11735 X5.2727 Y2.3756 Z-0.0482
N11740 X5.2777 Y2.3706 Z-0.0483
N11745 X5.2826 Y2.3656 Z-0.0484
N11750 X5.2875 Y2.3606 Z-0.0486
N11755 X5.2923 Y2.3554 Z-0.0487
N11760 X5.297 Y2.3502 Z-0.0488
N11765 X5.3062 Y2.3396 Z-0.049
N11770 X5.3151 Y2.3287 Z-0.0491
N11775 X5.3237 Y2.3176 Z-0.0493
N11780 X5.332 Y2.3062 Z-0.0495
N11785 X5.34 Y2.2947 Z-0.0496
N11790 X5.3477 Y2.2829 Z-0.0497
N11795 X5.355 Y2.2709 Z-0.0498
N11800 X5.3621 Y2.2586 Z-0.0499
N11805 X5.3687 Y2.2462
N11810 X5.3751 Y2.2337 Z-0.05
N11815 X5.381 Y2.2209
N11820 X5.3844 Y2.2133
N11825 X5.3858 Y2.2101
N11830 X5.3873 Y2.2067
N11835 X5.3891 Y2.2022
N11840 X5.3923 Y2.1942
N11845 X5.3952 Y2.1863
N11850 X5.3953 Y2.1862
N11855 X5.3982 Y2.1782
N11860 X5.4009 Y2.1702
N11865 X5.4032 Y2.1631
N11870 X5.4035 Y2.1623
N11875 X5.406 Y2.1543
N11880 X5.4083 Y2.1463
N11885 X5.4105 Y2.1383
N11890 X5.4112 Y2.1356
N11895 X5.4126 Y2.1303
N11900 X5.4145 Y2.1224
N11905 X5.4163 Y2.1144
N11910 X5.418 Y2.1064
N11915 X5.4192 Y2.1003
N11920 X5.4195 Y2.0984
N11925 X5.421 Y2.0904
N11930 X5.4223 Y2.0825
N11935 X5.4235 Y2.0745
N11940 X5.4245 Y2.0665
N11945 X5.4255 Y2.0585
N11950 X5.4263 Y2.0505
N11955 X5.4271 Y2.0409
N11960 X5.4276 Y2.0346
N11965 X5.4281 Y2.0266
N11970 X5.4284 Y2.0186
N11975 X5.4287 Y2.0107
N11980 X5.4288 Y2.0027
N11985 Y1.9947
N11990 X5.4289 Y1.9229
N11995 Y1.9149
N12000 X5.4288 Y1.5
N12005 X5.4289 Y1.0851
N12010 Y1.0771
N12015 X5.4288 Y1.0053
N12020 Y0.9973
N12025 X5.4287 Y0.9893
N12030 X5.4284 Y0.9814
N12035 X5.4281 Y0.9734
N12040 X5.4276 Y0.9654
N12045 X5.4271 Y0.9591
N12050 X5.4263 Y0.9495
N12055 X5.4255 Y0.9415
N12060 X5.4245 Y0.9335
N12065 X5.4235 Y0.9255
N12070 X5.4223 Y0.9175
N12075 X5.421 Y0.9096
N12080 X5.4195 Y0.9016
N12085 X5.4192 Y0.8997
N12090 X5.418 Y0.8936
N12095 X5.4163 Y0.8856
N12100 X5.4145 Y0.8776
N12105 X5.4126 Y0.8697
N12110 X5.4112 Y0.8644
N12115 X5.4105 Y0.8617
N12120 X5.4083 Y0.8537
N12125 X5.406 Y0.8457
N12130 X5.4035 Y0.8377
N12135 X5.4032 Y0.8369
N12140 X5.4009 Y0.8298
N12145 X5.3982 Y0.8218
N12150 X5.3953 Y0.8138
N12155 X5.3952 Y0.8137
N12160 X5.3923 Y0.8058
N12165 X5.3891 Y0.7978
N12170 X5.3873 Y0.7933
N12175 X5.3858 Y0.7899
N12180 X5.3823 Y0.7819
N12185 X5.3793 Y0.7752
N12190 X5.3787 Y0.7739
N12195 X5.3749 Y0.7659
N12200 X5.3713 Y0.7586
N12205 X5.371 Y0.758
N12210 X5.3669 Y0.75
N12215 X5.3633 Y0.7433
N12220 X5.3626 Y0.742
N12225 X5.3582 Y0.734
N12230 X5.3553 Y0.7292
N12235 X5.3535 Y0.726
N12240 X5.3487 Y0.7181
N12245 X5.3474 Y0.7159
N12250 X5.3437 Y0.7101
N12255 X5.3394 Y0.7035
N12260 X5.3385 Y0.7021
N12265 X5.3331 Y0.6941
N12270 X5.3314 Y0.6917
N12275 X5.3274 Y0.6861
N12280 X5.3234 Y0.6806
N12285 X5.3216 Y0.6782
N12290 X5.3154 Y0.67
N12295 X5.3092 Y0.6622
N12300 X5.3075 Y0.66
N12305 X5.3027 Y0.6542
N12310 X5.2995 Y0.6504
N12315 X5.2959 Y0.6462
N12320 X5.2915 Y0.6413
N12325 X5.2888 Y0.6383
N12330 X5.2835 Y0.6326
N12335 X5.2814 Y0.6303
N12340 X5.2755 Y0.6242
N12345 X5.2737 Y0.6223
N12350 X5.2676 Y0.6162
N12355 X5.2657 Y0.6143
N12360 X5.2596 Y0.6085
N12365 X5.2573 Y0.6064
N12370 X5.2516 Y0.6011
N12375 X5.2486 Y0.5984
N12380 X5.2436 Y0.594
N12385 X5.2394 Y0.5904
N12390 X5.2357 Y0.5872
N12395 X5.2299 Y0.5824
N12400 X5.2277 Y0.5807
N12405 X5.2198 Y0.5744
N12410 X5.2117 Y0.5683
N12415 X5.2093 Y0.5665
N12420 X5.2037 Y0.5624
N12425 X5.1982 Y0.5585
N12430 X5.1958 Y0.5568
N12435 X5.1878 Y0.5514
N12440 X5.1864 Y0.5505
N12445 X5.1798 Y0.5462
N12450 X5.174 Y0.5425
N12455 X5.1718 Y0.5412
N12460 X5.1638 Y0.5364
N12465 X5.1607 Y0.5345
N12470 X5.1559 Y0.5317
N12475 X5.1479 Y0.5273
N12480 X5.1465 Y0.5266
N12485 X5.1399 Y0.523
N12490 X5.1319 Y0.5189
N12495 X5.1313 Y0.5186
N12500 X5.1239 Y0.515
N12505 X5.116 Y0.5112
N12510 X5.1147 Y0.5106
N12515 X5.108 Y0.5076
N12520 X5.1 Y0.5041
N12525 X5.0965 Y0.5026
N12530 X5.092 Y0.5008
N12535 X5.0841 Y0.4976
N12540 X5.0762 Y0.4946
N12545 X5.0761
N12550 X5.0681 Y0.4917
N12555 X5.0601 Y0.489
N12560 X5.053 Y0.4867
N12565 X5.0521 Y0.4864
N12570 X5.0442 Y0.4839
N12575 X5.0362 Y0.4816
N12580 X5.0282 Y0.4794
N12585 X5.0255 Y0.4787
N12590 X5.0202 Y0.4773
N12595 X5.0122 Y0.4754
N12600 X5.0043 Y0.4736
N12605 X4.9963 Y0.4719
N12610 X4.9902 Y0.4707
N12615 X4.9883 Y0.4704
N12620 X4.9803 Y0.4689
N12625 X4.9723 Y0.4676
N12630 X4.9644 Y0.4664
N12635 X4.9564 Y0.4653
N12640 X4.9484 Y0.4644
N12645 X4.9404 Y0.4636
N12650 X4.9308 Y0.4627
N12655 X4.9245 Y0.4623
N12660 X4.9165 Y0.4618
N12665 X4.9085 Y0.4615
N12670 X4.9005 Y0.4612
N12675 X4.8926 Y0.4611
N12680 X4.8846 Y0.461
N12685 X4.8128
N12690 X4.8048
N12695 X4.3899 Y0.4611
N12700 X3.975 Y0.461
N12705 X3.967
N12710 X3.8952
N12715 X3.8872 Y0.4611
N12720 X3.8792 Y0.4612
N12725 X3.8713 Y0.4615
N12730 X3.8633 Y0.4618
N12735 X3.8553 Y0.4623
N12740 X3.849 Y0.4627
N12745 X3.8393 Y0.4636
N12750 X3.8314 Y0.4644
N12755 X3.8234 Y0.4653
N12760 X3.8154 Y0.4664
N12765 X3.8074 Y0.4676
N12770 X3.7994 Y0.4689
N12775 X3.7915 Y0.4704
N12780 X3.7896 Y0.4707
N12785 X3.7835 Y0.4719
N12790 X3.7755 Y0.4736
N12795 X3.7675 Y0.4754
N12800 X3.7595 Y0.4773
N12805 X3.7543 Y0.4787
N12810 X3.7516 Y0.4794
N12815 X3.7436 Y0.4816
N12820 X3.7356 Y0.4839
N12825 X3.7276 Y0.4864
N12830 X3.7268 Y0.4867
N12835 X3.7197 Y0.489
N12840 X3.7117 Y0.4917
N12845 X3.7037 Y0.4946
N12850 X3.7036
N12855 X3.6957 Y0.4976
N12860 X3.6877 Y0.5008
N12865 X3.6832 Y0.5026
N12870 X3.6798 Y0.5041
N12875 X3.6718 Y0.5076
N12880 X3.6651 Y0.5106
N12885 X3.6638 Y0.5112
N12890 X3.6558 Y0.515
N12895 X3.6484 Y0.5186
N12900 X3.6478 Y0.5189
N12905 X3.6399 Y0.523
N12910 X3.6332 Y0.5266
N12915 X3.6319 Y0.5273
N12920 X3.6239 Y0.5317
N12925 X3.6191 Y0.5345
N12930 X3.6159 Y0.5364
N12935 X3.6079 Y0.5412
N12940 X3.6058 Y0.5425
N12945 X3.6 Y0.5462
N12950 X3.5933 Y0.5505
N12955 X3.592 Y0.5514
N12960 X3.584 Y0.5568
N12965 X3.5816 Y0.5585
N12970 X3.576 Y0.5624
N12975 X3.5705 Y0.5665
N12980 X3.5681 Y0.5683
N12985 X3.5599 Y0.5744
N12990 X3.5521 Y0.5807
N12995 X3.5499 Y0.5824
N13000 X3.5441 Y0.5872
N13005 X3.5403 Y0.5904
N13010 X3.5361 Y0.594
N13015 X3.5312 Y0.5984
N13020 X3.5282 Y0.6011
N13025 X3.5225 Y0.6064
N13030 X3.5202 Y0.6085
N13035 X3.5141 Y0.6143
N13040 X3.5122 Y0.6162
N13045 X3.5061 Y0.6223
N13050 X3.5042 Y0.6242
N13055 X3.4984 Y0.6303
N13060 X3.4962 Y0.6326
N13065 X3.491 Y0.6383
N13070 X3.4883 Y0.6413
N13075 X3.4839 Y0.6462
N13080 X3.4803 Y0.6504
N13085 X3.4771 Y0.6542
N13090 X3.4723 Y0.66
N13095 X3.4705 Y0.6622
N13100 X3.4643 Y0.67
N13105 X3.4581 Y0.6782
N13110 X3.4563 Y0.6806
N13115 X3.4523 Y0.6861
N13120 X3.4484 Y0.6917
N13125 X3.4467 Y0.6941
N13130 X3.4413 Y0.7021
N13135 X3.4404 Y0.7035
N13140 X3.4361 Y0.7101
N13145 X3.4324 Y0.7159
N13150 X3.4311 Y0.7181
N13155 X3.4263 Y0.726
N13160 X3.4244 Y0.7292
N13165 X3.4216 Y0.734
N13170 X3.4172 Y0.742
N13175 X3.4165 Y0.7433
N13180 X3.4129 Y0.75
N13185 X3.4088 Y0.758
N13190 X3.4085 Y0.7586
N13195 X3.4049 Y0.7659
N13200 X3.4011 Y0.7739
N13205 X3.4005 Y0.7752
N13210 X3.3974 Y0.7819
N13215 X3.394 Y0.7899
N13220 X3.3925 Y0.7933
N13225 X3.3907 Y0.7978
N13230 X3.3875 Y0.8058
N13235 X3.3845 Y0.8137
N13240 Y0.8138
N13245 X3.3816 Y0.8218
N13250 X3.3789 Y0.8298
N13255 X3.3766 Y0.8369
N13260 X3.3763 Y0.8377
N13265 X3.3738 Y0.8457
N13270 X3.3715 Y0.8537
N13275 X3.3693 Y0.8617
N13280 X3.3686 Y0.8644
N13285 X3.3672 Y0.8697
N13290 X3.3653 Y0.8776
N13295 X3.3636 Y0.8849
N13300 X3.3635 Y0.8856
N13305 X3.3618 Y0.8936
N13310 X3.3606 Y0.8997
N13315 X3.3602 Y0.9016
N13320 X3.3588 Y0.9096
N13325 X3.3575 Y0.9175
N13330 X3.3563 Y0.9255
N13335 X3.3552 Y0.9335
N13340 X3.3543 Y0.9415
N13345 X3.3534 Y0.9495
N13350 X3.3526 Y0.9591
N13355 X3.3522 Y0.9654
N13360 X3.3517 Y0.9734
N13365 X3.3514 Y0.9814
N13370 X3.3511 Y0.9893
N13375 X3.351 Y0.9973
N13380 X3.3509 Y1.0053
N13385 Y1.0771
N13390 Y1.0851
N13395 X3.351 Y1.5
N13400 X3.3509 Y1.9149
N13405 Y1.9229
N13410 Y1.9947
N13415 X3.351 Y2.0027
N13420 X3.3511 Y2.0107
N13425 X3.3514 Y2.0186
N13430 X3.3517 Y2.0266
N13435 X3.3522 Y2.0346
N13440 X3.3526 Y2.0409
N13445 X3.3534 Y2.0505
N13450 X3.3543 Y2.0585
N13455 X3.3552 Y2.0665
N13460 X3.3563 Y2.0745
N13465 X3.3575 Y2.0825
N13470 X3.3588 Y2.0904
N13475 X3.3602 Y2.0984
N13480 X3.3606 Y2.1003
N13485 X3.3618 Y2.1064
N13490 X3.3635 Y2.1144
N13495 X3.3653 Y2.1224
N13500 X3.3672 Y2.1303
N13505 X3.3686 Y2.1356
N13510 X3.3693 Y2.1383
N13515 X3.3715 Y2.1463
N13520 X3.3738 Y2.1543
N13525 X3.3763 Y2.1623
N13530 X3.3766 Y2.1631
N13535 X3.3789 Y2.1702
N13540 X3.3816 Y2.1782
N13545 X3.3845 Y2.1862
N13550 Y2.1863
N13555 X3.3875 Y2.1942
N13560 X3.3907 Y2.2022
N13565 X3.3925 Y2.2067
N13570 X3.394 Y2.2101
N13575 X3.3974 Y2.2181
N13580 X3.4005 Y2.2248
N13585 X3.4011 Y2.2261
N13590 X3.4049 Y2.2341
N13595 X3.4085 Y2.2414
N13600 X3.4088 Y2.242
N13605 X3.4129 Y2.25
N13610 X3.4165 Y2.2567
N13615 X3.4172 Y2.258
N13620 X3.4216 Y2.266
N13625 X3.4244 Y2.2708
N13630 X3.4263 Y2.274
N13635 X3.4311 Y2.2819
N13640 X3.4324 Y2.2841
N13645 X3.4361 Y2.2899
N13650 X3.4404 Y2.2965
N13655 X3.4413 Y2.2979
N13660 X3.4467 Y2.3059
N13665 X3.4484 Y2.3083
N13670 X3.4523 Y2.3139
N13675 X3.4563 Y2.3194
N13680 X3.4581 Y2.3218
N13685 X3.4643 Y2.33
N13690 X3.4705 Y2.3378
N13695 X3.4723 Y2.34
N13700 X3.4771 Y2.3458
N13705 X3.4803 Y2.3496
N13710 X3.4839 Y2.3538
N13715 X3.4883 Y2.3587
N13720 X3.491 Y2.3617
N13725 X3.4962 Y2.3674
N13730 X3.4984 Y2.3697
N13735 X3.5042 Y2.3758
N13740 X3.5061 Y2.3777
N13745 X3.5122 Y2.3838
N13750 X3.5141 Y2.3857
N13755 X3.5202 Y2.3915
N13760 X3.5225 Y2.3936
N13765 X3.5282 Y2.3989
N13770 X3.5312 Y2.4016
N13775 X3.5361 Y2.406
N13780 X3.5403 Y2.4096
N13785 X3.5441 Y2.4128
N13790 X3.5499 Y2.4176
N13795 X3.5521 Y2.4193
N13800 X3.5599 Y2.4256
N13805 X3.5681 Y2.4317
N13810 X3.5705 Y2.4335
N13815 X3.576 Y2.4376
N13820 X3.5816 Y2.4415
N13825 X3.584 Y2.4432
N13830 X3.592 Y2.4486
N13835 X3.5933 Y2.4495
N13840 X3.6 Y2.4538
N13845 X3.6058 Y2.4575
N13850 X3.6079 Y2.4588
N13855 X3.6159 Y2.4636
N13860 X3.6191 Y2.4655
N13865 X3.6239 Y2.4683
N13870 X3.6319 Y2.4727
N13875 X3.6332 Y2.4734
N13880 X3.6399 Y2.477
N13885 X3.6478 Y2.4811
N13890 X3.6484 Y2.4814
N13895 X3.6558 Y2.485
N13900 X3.6638 Y2.4888
N13905 X3.6651 Y2.4894
N13910 X3.6718 Y2.4924
N13915 X3.6798 Y2.4959
N13920 X3.6832 Y2.4974
N13925 X3.6877 Y2.4992
N13930 X3.6957 Y2.5024
N13935 X3.7036 Y2.5054
N13940 X3.7037
N13945 X3.7117 Y2.5083
N13950 X3.7197 Y2.511
N13955 X3.7268 Y2.5133
N13960 X3.7276 Y2.5136
N13965 X3.7356 Y2.5161
N13970 X3.7436 Y2.5184
N13975 X3.7516 Y2.5206
N13980 X3.7543 Y2.5213
N13985 X3.7595 Y2.5227
N13990 X3.7675 Y2.5246
N13995 X3.7755 Y2.5264
N14000 X3.7835 Y2.5281
N14005 X3.7896 Y2.5293
N14010 X3.7915 Y2.5296
N14015 X3.7994 Y2.5311
N14020 X3.8074 Y2.5324
N14025 X3.8154 Y2.5336
N14030 X3.8234 Y2.5347
N14035 X3.8314 Y2.5356
N14040 X3.8393 Y2.5364
N14045 X3.849 Y2.5373
N14050 X3.8553 Y2.5377
N14055 X3.8633 Y2.5382
N14060 X3.8713 Y2.5385
N14065 X3.8792 Y2.5388
N14070 X3.8872 Y2.5389
N14075 X3.8952 Y2.539
N14080 X3.967
N14085 X3.975
N14090 X4.3899 Y2.5389
N14095 X4.8048 Y2.539
N14100 X4.8128
N14105 X4.8846
N14110 X4.8926 Y2.5389
N14115 X4.9005 Y2.5388
N14120 X4.9085 Y2.5385
N14125 X4.9165 Y2.5382
N14130 X4.9245 Y2.5377
N14135 X4.9308 Y2.5373
N14140 X4.9404 Y2.5364
N14145 X4.9484 Y2.5356
N14150 X4.9564 Y2.5347
N14155 X4.9644 Y2.5336
N14160 X4.9723 Y2.5324
N14165 X4.9803 Y2.5311
N14170 X4.9883 Y2.5296
N14175 X4.9902 Y2.5293
N14180 X4.9963 Y2.5281
N14185 X5.0043 Y2.5264
N14190 X5.0122 Y2.5246
N14195 X5.0202 Y2.5227
N14200 X5.0255 Y2.5213
N14205 X5.0282 Y2.5206
N14210 X5.0362 Y2.5184
N14215 X5.0442 Y2.5161
N14220 X5.0521 Y2.5136
N14225 X5.053 Y2.5133
N14230 X5.0601 Y2.511
N14235 X5.0681 Y2.5083
N14240 X5.0761 Y2.5054
N14245 X5.0762
N14250 X5.0841 Y2.5024
N14255 X5.092 Y2.4992
N14260 X5.0965 Y2.4974
N14265 X5.1 Y2.4959
N14270 X5.108 Y2.4924
N14275 X5.1147 Y2.4894
N14280 X5.116 Y2.4888
N14285 X5.1239 Y2.485
N14290 X5.1313 Y2.4814
N14295 X5.1319 Y2.4811
N14300 X5.1399 Y2.477
N14305 X5.1465 Y2.4734
N14310 X5.1479 Y2.4727
N14315 X5.1559 Y2.4683
N14320 X5.1607 Y2.4655
N14325 X5.1638 Y2.4636
N14330 X5.1718 Y2.4588
N14335 X5.174 Y2.4575
N14340 X5.1798 Y2.4538
N14345 X5.1864 Y2.4495
N14350 X5.1878 Y2.4486
N14355 X5.1958 Y2.4432
N14360 X5.1982 Y2.4415
N14365 X5.2037 Y2.4376
N14370 X5.2093 Y2.4335
N14375 X5.2117 Y2.4317
N14380 X5.2198 Y2.4256
N14385 X5.2277 Y2.4193
N14390 X5.2299 Y2.4176
N14395 X5.2357 Y2.4128
N14400 X5.2394 Y2.4096
N14405 X5.2436 Y2.406
N14410 X5.2486 Y2.4016
N14415 X5.2516 Y2.3989
N14420 X5.2573 Y2.3936
N14425 X5.2596 Y2.3915
N14430 X5.2657 Y2.3857
N14435 X5.2676 Y2.3838
N14440 X5.2737 Y2.3777
N14445 X5.2755 Y2.3758
N14450 X5.2814 Y2.3697
N14455 X5.2835 Y2.3674
N14460 X5.2888 Y2.3617
N14465 X5.2915 Y2.3587
N14470 X5.2959 Y2.3538
N14475 X5.2995 Y2.3496
N14480 X5.3027 Y2.3458
N14485 X5.3075 Y2.34
N14490 X5.3092 Y2.3378
N14495 X5.3154 Y2.33
N14500 X5.3216 Y2.3218
N14505 X5.3234 Y2.3194
N14510 X5.3274 Y2.3139
N14515 X5.3314 Y2.3083
N14520 X5.3331 Y2.3059
N14525 X5.3385 Y2.2979
N14530 X5.3394 Y2.2965
N14535 X5.3437 Y2.2899
N14540 X5.3474 Y2.2841
N14545 X5.3487 Y2.2819
N14550 X5.3535 Y2.274
N14555 X5.3553 Y2.2708
N14560 X5.3582 Y2.266
N14565 X5.3626 Y2.258
N14570 X5.3633 Y2.2567
N14575 X5.3669 Y2.25
N14580 X5.371 Y2.242
N14585 X5.3713 Y2.2414
N14590 X5.3749 Y2.2341
N14595 X5.3787 Y2.2261
N14600 X5.3793 Y2.2248
N14605 X5.3823 Y2.2181
N14610 X5.3844 Y2.2133
N14615 X5.5883 Y2.2568
N14620 G3 X5.4979 Y2.1679 Z-0.057 I-0.0452 J-0.0445
N14625 X5.5883 Y2.2568 Z-0.0639 I0.0452 J0.0445
N14630 X5.4979 Y2.1679 Z-0.0709 I-0.0452 J-0.0445
N14635 X5.5883 Y2.2568 Z-0.0778 I0.0452 J0.0445
N14640 X5.4979 Y2.1679 Z-0.0848 I-0.0452 J-0.0445
N14645 X5.5883 Y2.2568 Z-0.0917 I0.0452 J0.0445
N14650 X5.4979 Y2.1679 Z-0.0987 I-0.0452 J-0.0445
N14655 X5.5883 Y2.2568 Z-0.1056 I0.0452 J0.0445
N14660 X5.4979 Y2.1679 Z-0.1126 I-0.0452 J-0.0445
N14665 X5.5883 Y2.2568 Z-0.1195 I0.0452 J0.0445
N14670 X5.4979 Y2.1679 Z-0.1265 I-0.0452 J-0.0445
N14675 X5.5883 Y2.2568 Z-0.1334 I0.0452 J0.0445
N14680 X5.4979 Y2.1679 Z-0.1404 I-0.0452 J-0.0445
N14685 X5.5883 Y2.2568 Z-0.1473 I0.0452 J0.0445
N14690 X5.5181 Y2.2706 Z-0.15 I-0.0452 J-0.0445
N14695 G1 X5.4519 Y2.2423
N14700 X5.452 Y2.242
N14705 X5.4554 Y2.2341
N14710 X5.4586 Y2.2261
N14715 X5.4591 Y2.2249
N14720 X5.4617 Y2.2181
N14725 X5.4647 Y2.2101
N14730 X5.467 Y2.2037
N14735 X5.4703 Y2.1942
N14740 X5.4729 Y2.1862
N14745 X5.475 Y2.1795
N14750 X5.4754 Y2.1782
N14755 X5.4778 Y2.1702
N14760 X5.4801 Y2.1623
N14765 X5.4822 Y2.1543
N14770 X5.483 Y2.1512
N14775 X5.4842 Y2.1463
N14780 X5.4861 Y2.1383
N14785 X5.488 Y2.1303
N14790 X5.4896 Y2.1224
N14795 X5.491 Y2.1157
N14800 X5.4927 Y2.1064
N14805 X5.4941 Y2.0984
N14810 X5.4953 Y2.0904
N14815 X5.4965 Y2.0825
N14820 X5.4975 Y2.0745
N14825 X5.4984 Y2.0665
N14830 X5.499 Y2.0619
N14835 X5.4993 Y2.0585
N14840 X5.5 Y2.0505
N14845 X5.5007 Y2.0426
N14850 X5.5011 Y2.0346
N14855 X5.5016 Y2.0266
N14860 X5.5019 Y2.0186
N14865 X5.5021 Y2.0107
N14870 X5.5022 Y2.0027
N14875 Y1.9947
N14880 Y1.5957
N14885 Y1.5
N14890 Y1.3883
N14895 Y1.0053
N14900 Y0.9973
N14905 X5.5021 Y0.9893
N14910 X5.5019 Y0.9814
N14915 X5.5016 Y0.9734
N14920 X5.5011 Y0.9654
N14925 X5.5007 Y0.9574
N14930 X5.5 Y0.9495
N14935 X5.4993 Y0.9415
N14940 X5.499 Y0.9381
N14945 X5.4984 Y0.9335
N14950 X5.4975 Y0.9255
N14955 X5.4965 Y0.9175
N14960 X5.4953 Y0.9096
N14965 X5.4941 Y0.9016
N14970 X5.4927 Y0.8936
N14975 X5.491 Y0.8843
N14980 X5.4896 Y0.8776
N14985 X5.488 Y0.8697
N14990 X5.4861 Y0.8617
N14995 X5.4843 Y0.8537
N15000 X5.483 Y0.8488
N15005 X5.4822 Y0.8457
N15010 X5.4801 Y0.8377
N15015 X5.4778 Y0.8298
N15020 X5.4754 Y0.8218
N15025 X5.475 Y0.8205
N15030 X5.4729 Y0.8138
N15035 X5.4703 Y0.8058
N15040 X5.467 Y0.7963
N15045 X5.4647 Y0.7899
N15050 X5.4617 Y0.7819
N15055 X5.4591 Y0.7751
N15060 X5.4586 Y0.7739
N15065 X5.4554 Y0.7659
N15070 X5.452 Y0.758
N15075 X5.4511 Y0.7559
N15080 X5.4485 Y0.75
N15085 X5.4448 Y0.742
N15090 X5.4431 Y0.7383
N15095 X5.441 Y0.734
N15100 X5.4371 Y0.726
N15105 X5.4351 Y0.7222
N15110 X5.433 Y0.7181
N15115 X5.4288 Y0.7101
N15120 X5.4244 Y0.7021
N15125 X5.4199 Y0.6941
N15130 X5.4192 Y0.6929
N15135 X5.4152 Y0.6861
N15140 X5.4112 Y0.6796
N15145 X5.4103 Y0.6782
N15150 X5.4053 Y0.6702
N15155 X5.4001 Y0.6622
N15160 X5.3952 Y0.655
N15165 X5.3947 Y0.6542
N15170 X5.3892 Y0.6462
N15175 X5.3834 Y0.6383
N15180 X5.3793 Y0.6327
N15185 X5.3775 Y0.6303
N15190 X5.3713 Y0.6223
N15195 X5.3649 Y0.6143
N15200 X5.3633 Y0.6123
N15205 X5.3583 Y0.6064
N15210 X5.3553 Y0.6028
N15215 X5.3515 Y0.5984
N15220 X5.3445 Y0.5904
N15225 X5.3394 Y0.5849
N15230 X5.3371 Y0.5824
N15235 X5.3314 Y0.5764
N15240 X5.3234 Y0.5682
N15245 X5.3217 Y0.5665
N15250 X5.3135 Y0.5585
N15255 X5.3075 Y0.5528
N15260 X5.305 Y0.5505
N15265 X5.2995 Y0.5454
N15270 X5.2915 Y0.5384
N15275 X5.2871 Y0.5345
N15280 X5.2835 Y0.5316
N15285 X5.2776 Y0.5266
N15290 X5.2755 Y0.5249
N15295 X5.2676 Y0.5186
N15300 X5.2596 Y0.5124
N15305 X5.2572 Y0.5106
N15310 X5.2516 Y0.5065
N15315 X5.2436 Y0.5007
N15320 X5.2357 Y0.4952
N15325 X5.2349 Y0.4946
N15330 X5.2277 Y0.4898
N15335 X5.2197 Y0.4846
N15340 X5.2117 Y0.4796
N15345 X5.2103 Y0.4787
N15350 X5.2037 Y0.4747
N15355 X5.197 Y0.4707
N15360 X5.1958 Y0.47
N15365 X5.1878 Y0.4655
N15370 X5.1798 Y0.4611
N15375 X5.1718 Y0.4569
N15380 X5.1677 Y0.4548
N15385 X5.1638 Y0.4528
N15390 X5.1559 Y0.4489
N15395 X5.1516 Y0.4468
N15400 X5.1479 Y0.4451
N15405 X5.1399 Y0.4414
N15410 X5.134 Y0.4388
N15415 X5.1319 Y0.4379
N15420 X5.1239 Y0.4345
N15425 X5.116 Y0.4313
N15430 X5.1148 Y0.4308
N15435 X5.108 Y0.4282
N15440 X5.1 Y0.4252
N15445 X5.0935 Y0.4228
N15450 X5.0841 Y0.4196
N15455 X5.0761 Y0.417
N15460 X5.0694 Y0.4149
N15465 X5.0681 Y0.4144
N15470 X5.0601 Y0.4121
N15475 X5.0521 Y0.4098
N15480 X5.0442 Y0.4077
N15485 X5.0411 Y0.4069
N15490 X5.0362 Y0.4056
N15495 X5.0282 Y0.4037
N15500 X5.0202 Y0.4019
N15505 X5.0122 Y0.4002
N15510 X5.0056 Y0.3989
N15515 X4.9963 Y0.3972
N15520 X4.9883 Y0.3958
N15525 X4.9803 Y0.3945
N15530 X4.9723 Y0.3934
N15535 X4.9644 Y0.3923
N15540 X4.9564 Y0.3914
N15545 X4.9517 Y0.3909
N15550 X4.9484 Y0.3906
N15555 X4.9404 Y0.3899
N15560 X4.9325 Y0.3892
N15565 X4.9245 Y0.3887
N15570 X4.9165 Y0.3883
N15575 X4.9085 Y0.388
N15580 X4.9005 Y0.3878
N15585 X4.8926 Y0.3877
N15590 X4.8846
N15595 X4.4856
N15600 X4.3899
N15605 X4.2782
N15610 X3.8952
N15615 X3.8872
N15620 X3.8792 Y0.3878
N15625 X3.8713 Y0.388
N15630 X3.8633 Y0.3883
N15635 X3.8553 Y0.3887
N15640 X3.8473 Y0.3892
N15645 X3.8393 Y0.3899
N15650 X3.8314 Y0.3906
N15655 X3.828 Y0.3909
N15660 X3.8234 Y0.3914
N15665 X3.8154 Y0.3923
N15670 X3.8074 Y0.3934
N15675 X3.7994 Y0.3945
N15680 X3.7915 Y0.3958
N15685 X3.7835 Y0.3972
N15690 X3.7742 Y0.3989
N15695 X3.7675 Y0.4002
N15700 X3.7595 Y0.4019
N15705 X3.7516 Y0.4037
N15710 X3.7436 Y0.4056
N15715 X3.7387 Y0.4069
N15720 X3.7356 Y0.4077
N15725 X3.7276 Y0.4098
N15730 X3.7197 Y0.4121
N15735 X3.7117 Y0.4144
N15740 X3.7104 Y0.4149
N15745 X3.7037 Y0.417
N15750 X3.6957 Y0.4196
N15755 X3.6862 Y0.4228
N15760 X3.6798 Y0.4252
N15765 X3.6718 Y0.4282
N15770 X3.665 Y0.4308
N15775 X3.6638 Y0.4313
N15780 X3.6558 Y0.4345
N15785 X3.6478 Y0.4379
N15790 X3.6458 Y0.4388
N15795 X3.6399 Y0.4414
N15800 X3.6319 Y0.4451
N15805 X3.6282 Y0.4468
N15810 X3.6239 Y0.4489
N15815 X3.6159 Y0.4528
N15820 X3.612 Y0.4548
N15825 X3.6079 Y0.4569
N15830 X3.6 Y0.4611
N15835 X3.592 Y0.4655
N15840 X3.584 Y0.47
N15845 X3.5828 Y0.4707
N15850 X3.576 Y0.4747
N15855 X3.5695 Y0.4787
N15860 X3.5681 Y0.4796
N15865 X3.5601 Y0.4846
N15870 X3.5521 Y0.4898
N15875 X3.5449 Y0.4946
N15880 X3.5441 Y0.4952
N15885 X3.5361 Y0.5007
N15890 X3.5282 Y0.5065
N15895 X3.5226 Y0.5106
N15900 X3.5202 Y0.5124
N15905 X3.5122 Y0.5186
N15910 X3.5042 Y0.5249
N15915 X3.5022 Y0.5266
N15920 X3.4962 Y0.5316
N15925 X3.4927 Y0.5345
N15930 X3.4883 Y0.5384
N15935 X3.4803 Y0.5454
N15940 X3.4747 Y0.5505
N15945 X3.4723 Y0.5528
N15950 X3.4662 Y0.5585
N15955 X3.4581 Y0.5665
N15960 X3.4563 Y0.5682
N15965 X3.4484 Y0.5763
N15970 X3.4426 Y0.5824
N15975 X3.4404 Y0.5849
N15980 X3.4353 Y0.5904
N15985 X3.4282 Y0.5984
N15990 X3.4244 Y0.6028
N15995 X3.4214 Y0.6064
N16000 X3.4165 Y0.6123
N16005 X3.4148 Y0.6143
N16010 X3.4084 Y0.6223
N16015 X3.4023 Y0.6303
N16020 X3.4005 Y0.6327
N16025 X3.3963 Y0.6383
N16030 X3.3906 Y0.6462
N16035 X3.385 Y0.6542
N16040 X3.3845 Y0.655
N16045 X3.3796 Y0.6622
N16050 X3.3744 Y0.6702
N16055 X3.3694 Y0.6782
N16060 X3.3686 Y0.6796
N16065 X3.3645 Y0.6861
N16070 X3.3606 Y0.6929
N16075 X3.3599 Y0.6941
N16080 X3.3553 Y0.7021
N16085 X3.351 Y0.7101
N16090 X3.3468 Y0.7181
N16095 X3.3446 Y0.7221
N16100 X3.3426 Y0.726
N16105 X3.3388 Y0.734
N16110 X3.3367 Y0.7383
N16115 X3.335 Y0.742
N16120 X3.3313 Y0.75
N16125 X3.3287 Y0.7559
N16130 X3.3278 Y0.758
N16135 X3.3244 Y0.7659
N16140 X3.3212 Y0.7739
N16145 X3.3207 Y0.7751
N16150 X3.318 Y0.7819
N16155 X3.3151 Y0.7899
N16160 X3.3127 Y0.7963
N16165 X3.3095 Y0.8058
N16170 X3.3069 Y0.8138
N16175 X3.3047 Y0.8205
N16180 X3.3043 Y0.8218
N16185 X3.302 Y0.8298
N16190 X3.2997 Y0.8377
N16195 X3.2976 Y0.8457
N16200 X3.2968 Y0.8488
N16205 X3.2955 Y0.8537
N16210 X3.2936 Y0.8617
N16215 X3.292 Y0.8686
N16220 X3.2918 Y0.8697
N16225 X3.2901 Y0.8776
N16230 X3.2888 Y0.8843
N16235 X3.2871 Y0.8936
N16240 X3.2857 Y0.9016
N16245 X3.2844 Y0.9096
N16250 X3.2833 Y0.9175
N16255 X3.2822 Y0.9255
N16260 X3.2813 Y0.9335
N16265 X3.2808 Y0.9381
N16270 X3.2805 Y0.9415
N16275 X3.2798 Y0.9495
N16280 X3.2791 Y0.9574
N16285 X3.2786 Y0.9654
N16290 X3.2782 Y0.9734
N16295 X3.2779 Y0.9814
N16300 X3.2777 Y0.9893
N16305 X3.2776 Y0.9973
N16310 Y1.0053
N16315 Y1.4043
N16320 Y1.5
N16325 Y1.6117
N16330 Y1.9947
N16335 Y2.0027
N16340 X3.2777 Y2.0107
N16345 X3.2779 Y2.0186
N16350 X3.2782 Y2.0266
N16355 X3.2786 Y2.0346
N16360 X3.2791 Y2.0426
N16365 X3.2798 Y2.0505
N16370 X3.2805 Y2.0585
N16375 X3.2808 Y2.0619
N16380 X3.2813 Y2.0665
N16385 X3.2822 Y2.0745
N16390 X3.2833 Y2.0825
N16395 X3.2844 Y2.0904
N16400 X3.2857 Y2.0984
N16405 X3.2871 Y2.1064
N16410 X3.2888 Y2.1157
N16415 X3.2901 Y2.1224
N16420 X3.2918 Y2.1303
N16425 X3.2936 Y2.1383
N16430 X3.2955 Y2.1463
N16435 X3.2968 Y2.1512
N16440 X3.2976 Y2.1543
N16445 X3.2997 Y2.1623
N16450 X3.302 Y2.1702
N16455 X3.3043 Y2.1782
N16460 X3.3047 Y2.1795
N16465 X3.3069 Y2.1862
N16470 X3.3095 Y2.1942
N16475 X3.3127 Y2.2037
N16480 X3.3151 Y2.2101
N16485 X3.318 Y2.2181
N16490 X3.3207 Y2.2249
N16495 X3.3212 Y2.2261
N16500 X3.3244 Y2.2341
N16505 X3.3278 Y2.242
N16510 X3.3287 Y2.2441
N16515 X3.3313 Y2.25
N16520 X3.335 Y2.258
N16525 X3.3367 Y2.2617
N16530 X3.3388 Y2.266
N16535 X3.3426 Y2.274
N16540 X3.3446 Y2.2778
N16545 X3.3468 Y2.2819
N16550 X3.351 Y2.2899
N16555 X3.3553 Y2.2979
N16560 X3.3599 Y2.3059
N16565 X3.3606 Y2.3071
N16570 X3.3645 Y2.3139
N16575 X3.3686 Y2.3204
N16580 X3.3694 Y2.3218
N16585 X3.3744 Y2.3298
N16590 X3.3796 Y2.3378
N16595 X3.3845 Y2.345
N16600 X3.385 Y2.3458
N16605 X3.3906 Y2.3538
N16610 X3.3963 Y2.3617
N16615 X3.4005 Y2.3673
N16620 X3.4023 Y2.3697
N16625 X3.4084 Y2.3777
N16630 X3.4148 Y2.3857
N16635 X3.4165 Y2.3877
N16640 X3.4214 Y2.3936
N16645 X3.4244 Y2.3972
N16650 X3.4282 Y2.4016
N16655 X3.4353 Y2.4096
N16660 X3.4404 Y2.4151
N16665 X3.4426 Y2.4176
N16670 X3.4484 Y2.4237
N16675 X3.4563 Y2.4318
N16680 X3.4581 Y2.4335
N16685 X3.4662 Y2.4415
N16690 X3.4723 Y2.4472
N16695 X3.4747 Y2.4495
N16700 X3.4803 Y2.4546
N16705 X3.4883 Y2.4616
N16710 X3.4927 Y2.4655
N16715 X3.4962 Y2.4684
N16720 X3.5022 Y2.4734
N16725 X3.5042 Y2.4751
N16730 X3.5122 Y2.4814
N16735 X3.5202 Y2.4876
N16740 X3.5226 Y2.4894
N16745 X3.5282 Y2.4935
N16750 X3.5361 Y2.4993
N16755 X3.5441 Y2.5048
N16760 X3.5449 Y2.5054
N16765 X3.5521 Y2.5102
N16770 X3.5601 Y2.5154
N16775 X3.5681 Y2.5204
N16780 X3.5695 Y2.5213
N16785 X3.576 Y2.5253
N16790 X3.5828 Y2.5293
N16795 X3.584 Y2.53
N16800 X3.592 Y2.5345
N16805 X3.6 Y2.5389
N16810 X3.6079 Y2.5431
N16815 X3.612 Y2.5452
N16820 X3.6159 Y2.5472
N16825 X3.6239 Y2.5511
N16830 X3.6282 Y2.5532
N16835 X3.6319 Y2.5549
N16840 X3.6399 Y2.5586
N16845 X3.6458 Y2.5612
N16850 X3.6478 Y2.5621
N16855 X3.6558 Y2.5655
N16860 X3.6638 Y2.5687
N16865 X3.665 Y2.5692
N16870 X3.6718 Y2.5718
N16875 X3.6798 Y2.5748
N16880 X3.6862 Y2.5772
N16885 X3.6957 Y2.5804
N16890 X3.7037 Y2.583
N16895 X3.7104 Y2.5851
N16900 X3.7117 Y2.5856
N16905 X3.7197 Y2.5879
N16910 X3.7276 Y2.5902
N16915 X3.7356 Y2.5923
N16920 X3.7387 Y2.5931
N16925 X3.7436 Y2.5944
N16930 X3.7516 Y2.5963
N16935 X3.7595 Y2.5981
N16940 X3.7675 Y2.5998
N16945 X3.7742 Y2.6011
N16950 X3.7835 Y2.6028
N16955 X3.7915 Y2.6042
N16960 X3.7994 Y2.6055
N16965 X3.8074 Y2.6066
N16970 X3.8154 Y2.6077
N16975 X3.8234 Y2.6086
N16980 X3.828 Y2.6091
N16985 X3.8314 Y2.6094
N16990 X3.8393 Y2.6101
N16995 X3.8473 Y2.6108
N17000 X3.8553 Y2.6113
N17005 X3.8633 Y2.6117
N17010 X3.8713 Y2.612
N17015 X3.8792 Y2.6122
N17020 X3.8872 Y2.6123
N17025 X3.8952
N17030 X4.2941
N17035 X4.3899
N17040 X4.5016
N17045 X4.8846
N17050 X4.8926
N17055 X4.9005 Y2.6122
N17060 X4.9085 Y2.612
N17065 X4.9165 Y2.6117
N17070 X4.9245 Y2.6113
N17075 X4.9325 Y2.6108
N17080 X4.9404 Y2.6101
N17085 X4.9484 Y2.6094
N17090 X4.9517 Y2.6091
N17095 X4.9564 Y2.6086
N17100 X4.9644 Y2.6077
N17105 X4.9723 Y2.6066
N17110 X4.9803 Y2.6055
N17115 X4.9883 Y2.6042
N17120 X4.9963 Y2.6028
N17125 X5.0056 Y2.6011
N17130 X5.0122 Y2.5998
N17135 X5.0202 Y2.5981
N17140 X5.0282 Y2.5963
N17145 X5.0362 Y2.5944
N17150 X5.0411 Y2.5931
N17155 X5.0442 Y2.5923
N17160 X5.0521 Y2.5902
N17165 X5.0601 Y2.5879
N17170 X5.0681 Y2.5856
N17175 X5.0694 Y2.5851
N17180 X5.0761 Y2.583
N17185 X5.0841 Y2.5804
N17190 X5.0935 Y2.5772
N17195 X5.1 Y2.5748
N17200 X5.108 Y2.5718
N17205 X5.1148 Y2.5692
N17210 X5.116 Y2.5687
N17215 X5.1239 Y2.5655
N17220 X5.1319 Y2.5621
N17225 X5.134 Y2.5612
N17230 X5.1399 Y2.5586
N17235 X5.1479 Y2.5549
N17240 X5.1516 Y2.5532
N17245 X5.1559 Y2.5511
N17250 X5.1638 Y2.5472
N17255 X5.1677 Y2.5452
N17260 X5.1718 Y2.5431
N17265 X5.1798 Y2.5389
N17270 X5.1878 Y2.5345
N17275 X5.1958 Y2.53
N17280 X5.197 Y2.5293
N17285 X5.2037 Y2.5253
N17290 X5.2103 Y2.5213
N17295 X5.2117 Y2.5204
N17300 X5.2197 Y2.5154
N17305 X5.2277 Y2.5102
N17310 X5.2349 Y2.5054
N17315 X5.2357 Y2.5048
N17320 X5.2436 Y2.4993
N17325 X5.2516 Y2.4935
N17330 X5.2572 Y2.4894
N17335 X5.2596 Y2.4876
N17340 X5.2676 Y2.4814
N17345 X5.2755 Y2.4751
N17350 X5.2776 Y2.4734
N17355 X5.2835 Y2.4684
N17360 X5.2871 Y2.4655
N17365 X5.2915 Y2.4616
N17370 X5.2995 Y2.4546
N17375 X5.305 Y2.4495
N17380 X5.3075 Y2.4472
N17385 X5.3135 Y2.4415
N17390 X5.3217 Y2.4335
N17395 X5.3234 Y2.4318
N17400 X5.3314 Y2.4236
N17405 X5.3371 Y2.4176
N17410 X5.3394 Y2.4151
N17415 X5.3445 Y2.4096
N17420 X5.3515 Y2.4016
N17425 X5.3553 Y2.3972
N17430 X5.3583 Y2.3936
N17435 X5.3633 Y2.3877
N17440 X5.3649 Y2.3857
N17445 X5.3713 Y2.3777
N17450 X5.3775 Y2.3697
N17455 X5.3793 Y2.3673
N17460 X5.3834 Y2.3617
N17465 X5.3892 Y2.3538
N17470 X5.3947 Y2.3458
N17475 X5.3952 Y2.345
N17480 X5.4001 Y2.3378
N17485 X5.4053 Y2.3298
N17490 X5.4103 Y2.3218
N17495 X5.4112 Y2.3204
N17500 X5.4152 Y2.3139
N17505 X5.4192 Y2.3071
N17510 X5.4199 Y2.3059
N17515 X5.4244 Y2.2979
N17520 X5.4288 Y2.2899
N17525 X5.433 Y2.2819
N17530 X5.4351 Y2.2778
N17535 X5.4371 Y2.274
N17540 X5.441 Y2.266
N17545 X5.4431 Y2.2617
N17550 X5.4448 Y2.258
N17555 X5.4485 Y2.25
N17560 X5.4511 Y2.2441
N17565 X5.4519 Y2.2423
N17570 G0 Z0.85

(Pocket2)
N17575 M9
N17580 X4.3203 Y0.8977
N17585 Z0.85
N17590 Z0.3894
N17595 G1 Z0.38 F40
N17600 G2 X4.3198 Y0.898 Z0.3745 I0.0697 J0.0962
N17605 X4.3184 Y0.8991 Z0.3694 I0.0702 J0.0958
N17610 X4.3161 Y0.9008 Z0.3647 I0.0716 J0.0948
N17615 X4.3132 Y0.9032 Z0.3608 I0.0738 J0.093
N17620 X4.3098 Y0.9062 Z0.3577 I0.0768 J0.0906
N17625 X4.3061 Y0.9098 Z0.3558 I0.0802 J0.0876
N17630 X4.3023 Y0.9137 Z0.355 I0.0839 J0.084
N17635 X4.4776 Y1.074 Z0.342 I0.0876 J0.0801
N17640 X4.3023 Y0.9137 Z0.3289 I-0.0876 J-0.0801
N17645 X4.4776 Y1.074 Z0.3159 I0.0876 J0.0801
N17650 X4.3023 Y0.9137 Z0.3029 I-0.0876 J-0.0801
N17655 X4.4776 Y1.074 Z0.2899 I0.0876 J0.0801
N17660 X4.3023 Y0.9137 Z0.2768 I-0.0876 J-0.0801
N17665 X4.4776 Y1.074 Z0.2638 I0.0876 J0.0801
N17670 X4.3023 Y0.9137 Z0.2508 I-0.0876 J-0.0801
N17675 X4.4776 Y1.074 Z0.2378 I0.0876 J0.0801
N17680 X4.3023 Y0.9137 Z0.2247 I-0.0876 J-0.0801
N17685 X4.4776 Y1.074 Z0.2117 I0.0876 J0.0801
N17690 X4.3023 Y0.9137 Z0.1987 I-0.0876 J-0.0801
N17695 X4.4776 Y1.074 Z0.1856 I0.0876 J0.0801
N17700 X4.3023 Y0.9137 Z0.1726 I-0.0876 J-0.0801
N17705 X4.4776 Y1.074 Z0.1596 I0.0876 J0.0801
N17710 X4.39 Y0.8751 Z0.15 I-0.0876 J-0.0801
N17715 G1 X3.8919 Y0.875
N17720 X3.8907 Y0.8751
N17725 X3.8518 Y0.8814
N17730 X3.8515 Y0.8815
N17735 X3.8192 Y0.8979
N17740 X3.8164 Y0.8996
N17745 X3.7896 Y0.9264
N17750 X3.7889 Y0.9272
N17755 X3.7829 Y0.9388
N17760 X3.7714 Y0.9616
N17765 X3.7712 Y0.9623
N17770 X3.7694 Y0.9724
N17775 X3.765 Y1.0014
N17780 X3.7649 Y1.998
N17785 X3.765 Y1.9992
N17790 X3.7713 Y2.0381
N17795 X3.7714 Y2.0384
N17800 X3.7878 Y2.0707
N17805 X3.7894 Y2.0735
N17810 X3.8163 Y2.1003
N17815 X3.817 Y2.101
N17820 X3.8515 Y2.1185
N17825 X3.8521 Y2.1187
N17830 X3.8623 Y2.1205
N17835 X3.8913 Y2.1249
N17840 X4.8879 Y2.125
N17845 X4.8891 Y2.1249
N17850 X4.928 Y2.1186
N17855 X4.9283 Y2.1185
N17860 X4.9606 Y2.1021
N17865 X4.9634 Y2.1004
N17870 X4.9902 Y2.0736
N17875 X4.9909 Y2.0728
N17880 X5.0084 Y2.0383
N17885 X5.0086 Y2.0377
N17890 X5.0103 Y2.0276
N17895 X5.0147 Y1.9986
N17900 X5.0149 Y1.002
N17905 X5.0148 Y1.0008
N17910 X5.0084 Y0.9619
N17915 X5.0083 Y0.9616
N17920 X4.992 Y0.9293
N17925 X4.9903 Y0.9265
N17930 X4.9635 Y0.8997
N17935 X4.9627 Y0.899
N17940 X4.9282 Y0.8815
N17945 X4.9276 Y0.8813
N17950 X4.9175 Y0.8795
N17955 X4.8884 Y0.8751
N17960 X4.39
N17965 G2 X4.2492 Y0.9689 J0.1525
N17970 G3 X4.1084 Y1.0628 I-0.1408 J-0.0587
N17975 G1 X4.0286 Y1.0627
N17980 G2 X3.9527 Y1.1386 J0.0758
N17985 G1 X3.9526 Y1.8622
N17990 G2 X4.0275 Y1.9372 I0.0749
N17995 G1 X4.7512 Y1.9373
N18000 G2 X4.827 Y1.8614 J-0.0758
N18005 G1 X4.8271 Y1.1387
N18010 G2 X4.7513 Y1.0628 I-0.0758
N18015 G1 X4.1084
N18020 G2 X4.0239 Y1.3071 J0.1367
N18025 G3 X4.137 Y1.5395 I-0.1824 J0.2324
N18030 G1 Y1.678
N18035 G2 X4.2118 Y1.7529 I0.0749
N18040 G1 X4.5669
N18045 G2 X4.6428 Y1.6771 J-0.0758
N18050 G1 Y1.323
N18055 G2 X4.567 Y1.2471 I-0.0758
N18060 G1 X4.2129
N18065 G2 X4.137 Y1.3229 J0.0758
N18070 G1 Y1.5395
N18075 G2 X4.2385 Y1.5739 I0.0566
N18080 G3 X4.3446 Y1.5581 I0.0612 J0.0468
N18085 G2 X4.3771 Y1.5686 I0.0326 J-0.0454
N18090 G1 X4.4026
N18095 G2 X4.4585 Y1.5127 J-0.0559
N18100 G1 Y1.4873
N18105 G2 X4.4026 Y1.4314 I-0.0559
N18110 G1 X4.3772
N18115 G2 X4.3213 Y1.4873 J0.0559
N18120 G1 Y1.5127
N18125 G2 X4.3446 Y1.5581 I0.0559
N18130 X4.3643 Y1.5469 I0.0073 J-0.0102
N18135 G1 X4.312 Y0.937
N18140 G2 X4.2889 Y0.9315 I-0.0125 J0.0011
N18145 X4.491 Y1.0562 Z0.137 I0.1011 J0.0624
N18150 X4.2889 Y0.9315 Z0.1239 I-0.1011 J-0.0624
N18155 X4.491 Y1.0562 Z0.1109 I0.1011 J0.0624
N18160 X4.2889 Y0.9315 Z0.0979 I-0.1011 J-0.0624
N18165 X4.491 Y1.0562 Z0.0849 I0.1011 J0.0624
N18170 X4.2889 Y0.9315 Z0.0718 I-0.1011 J-0.0624
N18175 X4.491 Y1.0562 Z0.0588 I0.1011 J0.0624
N18180 X4.39 Y0.8751 Z0.05 I-0.1011 J-0.0624
N18185 G1 X3.8919 Y0.875
N18190 X3.8907 Y0.8751
N18195 X3.8518 Y0.8814
N18200 X3.8515 Y0.8815
N18205 X3.8192 Y0.8979
N18210 X3.8164 Y0.8996
N18215 X3.7896 Y0.9264
N18220 X3.7889 Y0.9272
N18225 X3.7829 Y0.9388
N18230 X3.7714 Y0.9616
N18235 X3.7712 Y0.9623
N18240 X3.7694 Y0.9724
N18245 X3.765 Y1.0014
N18250 X3.7649 Y1.998
N18255 X3.765 Y1.9992
N18260 X3.7713 Y2.0381
N18265 X3.7714 Y2.0384
N18270 X3.7878 Y2.0707
N18275 X3.7894 Y2.0735
N18280 X3.8163 Y2.1003
N18285 X3.817 Y2.101
N18290 X3.8515 Y2.1185
N18295 X3.8521 Y2.1187
N18300 X3.8623 Y2.1205
N18305 X3.8913 Y2.1249
N18310 X4.8879 Y2.125
N18315 X4.8891 Y2.1249
N18320 X4.928 Y2.1186
N18325 X4.9283 Y2.1185
N18330 X4.9606 Y2.1021
N18335 X4.9634 Y2.1004
N18340 X4.9902 Y2.0736
N18345 X4.9909 Y2.0728
N18350 X5.0084 Y2.0383
N18355 X5.0086 Y2.0377
N18360 X5.0103 Y2.0276
N18365 X5.0147 Y1.9986
N18370 X5.0149 Y1.002
N18375 X5.0148 Y1.0008
N18380 X5.0084 Y0.9619
N18385 X5.0083 Y0.9616
N18390 X4.992 Y0.9293
N18395 X4.9903 Y0.9265
N18400 X4.9635 Y0.8997
N18405 X4.9627 Y0.899
N18410 X4.9282 Y0.8815
N18415 X4.9276 Y0.8813
N18420 X4.9175 Y0.8795
N18425 X4.8884 Y0.8751
N18430 X4.39
N18435 G2 X4.2492 Y0.9689 J0.1525
N18440 G3 X4.1084 Y1.0628 I-0.1408 J-0.0587
N18445 G1 X4.0286 Y1.0627
N18450 G2 X3.9527 Y1.1386 J0.0758
N18455 G1 X3.9526 Y1.8622
N18460 G2 X4.0275 Y1.9372 I0.0749
N18465 G1 X4.7512 Y1.9373
N18470 G2 X4.827 Y1.8614 J-0.0758
N18475 G1 X4.8271 Y1.1387
N18480 G2 X4.7513 Y1.0628 I-0.0758
N18485 G1 X4.1084
N18490 G2 X4.0239 Y1.3071 J0.1367
N18495 G3 X4.137 Y1.5395 I-0.1824 J0.2324
N18500 G1 Y1.678
N18505 G2 X4.2118 Y1.7529 I0.0749
N18510 G1 X4.5669
N18515 G2 X4.6428 Y1.6771 J-0.0758
N18520 G1 Y1.323
N18525 G2 X4.567 Y1.2471 I-0.0758
N18530 G1 X4.2129
N18535 G2 X4.137 Y1.3229 J0.0758
N18540 G1 Y1.5395
N18545 G2 X4.2385 Y1.5739 I0.0566
N18550 G3 X4.3446 Y1.5581 I0.0612 J0.0468
N18555 G2 X4.3771 Y1.5686 I0.0326 J-0.0454
N18560 G1 X4.4026
N18565 G2 X4.4585 Y1.5127 J-0.0559
N18570 G1 Y1.4873
N18575 G2 X4.4026 Y1.4314 I-0.0559
N18580 G1 X4.3772
N18585 G2 X4.3213 Y1.4873 J0.0559
N18590 G1 Y1.5127
N18595 G2 X4.3446 Y1.5581 I0.0559
N18600 X4.3638 Y1.5441 I0.0073 J-0.0102
N18605 G1 X4.3246 Y1.4244
N18610 G3 X4.324 Y1.4194 I0.0119 J-0.0039
N18615 X4.5605 Y1.4409 Z0.037 I0.1183 J0.0108
N18620 X4.324 Y1.4194 Z0.0239 I-0.1183 J-0.0108
N18625 X4.5605 Y1.4409 Z0.0109 I0.1183 J0.0108
N18630 X4.324 Y1.4194 Z-0.0021 I-0.1183 J-0.0108
N18635 X4.5605 Y1.4409 Z-0.0151 I0.1183 J0.0108
N18640 X4.324 Y1.4194 Z-0.0282 I-0.1183 J-0.0108
N18645 X4.5605 Y1.4409 Z-0.0412 I0.1183 J0.0108
N18650 X4.371 Y1.5252 Z-0.05 I-0.1183 J-0.0108
N18655 X4.4088 Y1.4748 I0.0189 J-0.0252
N18660 X4.371 Y1.5252 I-0.0189 J0.0252
N18665 G2 X4.3072 Y1.5038 I-0.0642 J0.0856
N18670 G3 X4.2598 Y1.4561 I0.0002 J-0.0477
N18675 G1 Y1.4457
N18680 G3 X4.3356 Y1.3699 I0.0758
N18685 G1 X4.4442
N18690 G3 X4.52 Y1.4457 J0.0758
N18695 G1 Y1.5543
N18700 G3 X4.4442 Y1.6301 I-0.0758
N18705 G1 X4.3356
N18710 G3 X4.2597 Y1.5543 J-0.0758
N18715 G1 X4.2598 Y1.4561
N18720 G2 X4.1769 Y1.3319 I-0.1344
N18725 G3 X4.2061 Y1.1855 I0.0292 J-0.0703
N18730 G1 X4.6285 Y1.1856
N18735 G3 X4.7044 Y1.2614 J0.0758
N18740 G1 X4.7043 Y1.7386
N18745 G3 X4.6284 Y1.8145 I-0.0758
N18750 G1 X4.1512 Y1.8144
N18755 G3 X4.0754 Y1.7386 J-0.0758
N18760 G1 X4.0755 Y1.2614
N18765 G3 X4.1513 Y1.1855 I0.0758
N18770 G1 X4.2061
N18775 G2 X4.3452 Y1.0928 J-0.1507
N18780 G3 X4.4843 Y1.0001 I0.1391 J0.058
N18785 G1 X4.8833
N18790 X4.8888 Y1.0008
N18795 X4.8899 Y1.0093
N18800 X4.8897 Y1.9935
N18805 X4.8891 Y1.9989
N18810 X4.8806 Y2
N18815 X3.8964 Y1.9999
N18820 X3.891 Y1.9992
N18825 X3.8899 Y1.9907
N18830 X3.89 Y1.0065
N18835 X3.8906 Y1.0011
N18840 X3.8992 Y1
N18845 X4.4843 Y1.0001
N18850 G3 X4.4966 Y1.0152 J0.0125
N18855 G1 X4.3706 Y1.5931
N18860 G3 X4.3649 Y1.6011 I-0.0122 J-0.0027
N18865 X4.2402 Y1.3989 Z-0.063 I-0.0624 J-0.1011
N18870 X4.3649 Y1.6011 Z-0.0761 I0.0624 J0.1011
N18875 X4.2402 Y1.3989 Z-0.0891 I-0.0624 J-0.1011
N18880 X4.3649 Y1.6011 Z-0.1021 I0.0624 J0.1011
N18885 X4.2402 Y1.3989 Z-0.1151 I-0.0624 J-0.1011
N18890 X4.3649 Y1.6011 Z-0.1282 I0.0624 J0.1011
N18895 X4.2402 Y1.3989 Z-0.1412 I-0.0624 J-0.1011
N18900 X4.4213 Y1.5 Z-0.15 I0.0624 J0.1011
N18905 X4.3584 I-0.0315
N18910 X4.4213 I0.0315
N18915 G2 X4.4653 Y1.5553 I0.0568
N18920 G3 X4.4691 Y1.6259 I-0.0083 J0.0358
N18925 X4.4441 Y1.6301 I-0.025 J-0.0716
N18930 G1 X4.3346
N18935 G3 X4.2598 Y1.5552 J-0.0749
N18940 G1 Y1.4457
N18945 G3 X4.3356 Y1.3699 I0.0758
N18950 G1 X4.4442
N18955 G3 X4.52 Y1.4457 J0.0758
N18960 G1 Y1.5543
N18965 G3 X4.4691 Y1.6259 I-0.0758
N18970 G2 X4.3601 Y1.73 I0.0598 J0.1718
N18975 G3 X4.2353 Y1.8144 I-0.1248 J-0.05
N18980 G1 X4.1503
N18985 G3 X4.0754 Y1.7395 J-0.0749
N18990 G1 X4.0755 Y1.2614
N18995 G3 X4.1514 Y1.1855 I0.0758
N19000 G1 X4.6285 Y1.1856
N19005 G3 X4.7043 Y1.2615 J0.0758
N19010 G1 Y1.7386
N19015 G3 X4.6284 Y1.8145 I-0.0758
N19020 G1 X4.2353 Y1.8144
N19025 G2 X4.0962 Y1.9071 J0.1507
N19030 G3 X3.957 Y1.9998 I-0.1391 J-0.058
N19035 G1 X3.8964
N19040 X3.891 Y1.9992
N19045 X3.8907 Y1.999
N19050 X3.8899 Y1.9907
N19055 X3.8901 Y1.0065
N19060 X3.8907 Y1.0012
N19065 X3.8992 Y1
N19070 X4.8834 Y1.0002
N19075 X4.8887 Y1.0008
N19080 X4.8899 Y1.0093
N19085 X4.8897 Y1.9935
N19090 X4.8891 Y1.9988
N19095 X4.8889 Y1.9991
N19100 X4.8806 Y2
N19105 X3.957 Y1.9998
N19110 G3 X3.9491 Y1.9777 J-0.0125
N19115 G1 X4.3795 Y1.6213
N19120 G2 X4.3649 Y1.6011 I-0.008 J-0.0096
N19125 G3 X4.2402 Y1.3989 Z-0.163 I-0.0624 J-0.1011
N19130 X4.3649 Y1.6011 Z-0.1761 I0.0624 J0.1011
N19135 X4.2402 Y1.3989 Z-0.1891 I-0.0624 J-0.1011
N19140 X4.3649 Y1.6011 Z-0.2021 I0.0624 J0.1011
N19145 X4.2402 Y1.3989 Z-0.2151 I-0.0624 J-0.1011
N19150 X4.3649 Y1.6011 Z-0.2282 I0.0624 J0.1011
N19155 X4.2402 Y1.3989 Z-0.2412 I-0.0624 J-0.1011
N19160 X4.4213 Y1.5 Z-0.25 I0.0624 J0.1011
N19165 X4.3584 I-0.0315
N19170 X4.4213 I0.0315
N19175 G2 X4.4653 Y1.5553 I0.0568
N19180 G3 X4.4691 Y1.6259 I-0.0083 J0.0358
N19185 X4.4441 Y1.6301 I-0.025 J-0.0716
N19190 G1 X4.3346
N19195 G3 X4.2598 Y1.5552 J-0.0749
N19200 G1 Y1.4457
N19205 G3 X4.3356 Y1.3699 I0.0758
N19210 G1 X4.4442
N19215 G3 X4.52 Y1.4457 J0.0758
N19220 G1 Y1.5543
N19225 G3 X4.4691 Y1.6259 I-0.0758
N19230 G2 X4.3601 Y1.73 I0.0598 J0.1718
N19235 G3 X4.2353 Y1.8144 I-0.1248 J-0.05
N19240 G1 X4.1503
N19245 G3 X4.0754 Y1.7395 J-0.0749
N19250 G1 X4.0755 Y1.2614
N19255 G3 X4.1514 Y1.1855 I0.0758
N19260 G1 X4.6285 Y1.1856
N19265 G3 X4.7043 Y1.2615 J0.0758
N19270 G1 Y1.7386
N19275 G3 X4.6284 Y1.8145 I-0.0758
N19280 G1 X4.2353 Y1.8144
N19285 G2 X4.0962 Y1.9071 J0.1507
N19290 G3 X3.957 Y1.9998 I-0.1391 J-0.058
N19295 G1 X3.8964
N19300 X3.891 Y1.9992
N19305 X3.8907 Y1.999
N19310 X3.8899 Y1.9907
N19315 X3.8901 Y1.0065
N19320 X3.8907 Y1.0012
N19325 X3.8992 Y1
N19330 X4.8834 Y1.0002
N19335 X4.8887 Y1.0008
N19340 X4.8899 Y1.0093
N19345 X4.8897 Y1.9935
N19350 X4.8891 Y1.9988
N19355 X4.8889 Y1.9991
N19360 X4.8806 Y2
N19365 X3.957 Y1.9998
N19370 G3 X3.9515 Y1.9992 Z-0.2494 J-0.025
N19375 X3.9465 Y1.9975 Z-0.2475 I0.0055 J-0.0244
N19380 X3.9424 Y1.9951 Z-0.2445 I0.0105 J-0.0227
N19385 X3.9394 Y1.9926 Z-0.2406 I0.0146 J-0.0203
N19390 X3.9374 Y1.9904 Z-0.2358 I0.0176 J-0.0177
N19395 X3.9363 Y1.9889 Z-0.2306 I0.0196 J-0.0155
N19400 X3.936 Y1.9883 Z-0.225 I0.0207 J-0.014
N19405 G0 Z0.85
N19410 M5
N19415 G28 G91 Z0
N19420 G90

(Contour3)
N19425 M9
N19430 M1
N19435 T2 M6
N19440 T4
N19445 S1000 M3
N19450 M8
N19455 G0 X3.6566 Y0.9717
N19460 Z0.85
N19465 Z0.0791
N19470 G1 Z0.0331 F40
N19475 X3.6569 Y0.9718 Z0.0319
N19480 X3.6575 Z0.0309
N19485 X3.6585 Y0.972 Z0.0302
N19490 X3.6597 Y0.9721 Z0.03
N19495 G3 X3.6625 Y0.9755 I-0.0003 J0.0031
N19500 G1 X3.6624 Y0.9765
N19505 X3.6621 Y0.9793
N19510 X3.6619 Y0.982
N19515 X3.6616 Y0.9847
N19520 X3.6615 Y0.9874
N19525 X3.6613 Y0.9901
N19530 X3.6612 Y0.9929
N19535 X3.6611 Y0.9956
N19540 X3.6609 Y0.9983
N19545 Y1.001
N19550 Y1.2403
N19555 Y1.243
N19560 X3.661 Y1.4986
N19565 Y1.5014
N19570 X3.6609 Y1.757
N19575 Y1.8712
N19580 Y1.999
N19585 Y2.0017
N19590 X3.6611 Y2.0044
N19595 X3.6612 Y2.0071
